;FLAVOR:Marlin
;TIME:12709
;Filament used: 14.5128m
;Layer height: 0.28
;MINX:68.4
;MINY:74.75
;MINZ:0.28
;MAXX:166.6
;MAXY:160.25
;MAXZ:25.48
;Generated with Cura_SteamEngine 4.12.1
M140 S50
M105
M190 S50
M104 S200
M105
M109 S200
M82 ;absolute extrusion mode
; Ender 3 Custom Start G-code
G92 E0 ; Reset Extruder
G28 ; Home all axes
G1 Z2.0 F3000 ; Move Z Axis up little to prevent scratching of Heat Bed
G1 X0.1 Y20 Z0.3 F5000.0 ; Move to start position
G1 X0.1 Y200.0 Z0.3 F1500.0 E15 ; Draw the first line
G1 X0.4 Y200.0 Z0.3 F5000.0 ; Move to side a little
G1 X0.4 Y20 Z0.3 F1500.0 E30 ; Draw the second line
G92 E0 ; Reset Extruder
G1 Z2.0 F3000 ; Move Z Axis up little to prevent scratching of Heat Bed
G1 X5 Y20 Z0.3 F5000.0 ; Move over to prevent blob squish
G92 E0
G92 E0
G1 F2700 E-5
;LAYER_COUNT:91
;LAYER:0
M107
G0 F6000 X71.598 Y78.014 Z0.28
;TYPE:SKIRT
G1 F2700 E0
G1 F1200 X72.286 Y77.377 E0.04024
G1 X73.026 Y76.801 E0.08048
G1 X73.812 Y76.289 E0.12073
G1 X74.639 Y75.847 E0.16097
G1 X75.501 Y75.477 E0.20123
G1 X76.391 Y75.181 E0.24148
G1 X77.303 Y74.963 E0.28172
G1 X78.23 Y74.822 E0.32196
G1 X79.101 Y74.763 E0.35942
G1 X79.422 Y74.754 E0.3732
G1 X79.73 Y74.75 E0.38642
G1 X154.893 Y74.75 E3.61193
G1 X155.749 Y74.761 E3.64867
G1 X156.685 Y74.815 E3.6889
G1 X157.613 Y74.947 E3.72913
G1 X158.527 Y75.159 E3.76939
G1 X159.419 Y75.448 E3.80963
G1 X160.284 Y75.811 E3.84989
G1 X161.114 Y76.247 E3.89012
G1 X161.905 Y76.752 E3.93039
G1 X162.649 Y77.323 E3.97064
G1 X163.342 Y77.955 E4.01089
G1 X163.979 Y78.643 E4.05112
G1 X164.554 Y79.384 E4.09137
G1 X165.065 Y80.17 E4.1316
G1 X165.507 Y80.998 E4.17188
G1 X165.876 Y81.86 E4.21212
G1 X166.171 Y82.75 E4.25236
G1 X166.389 Y83.662 E4.2926
G1 X166.529 Y84.59 E4.33287
G1 X166.587 Y85.451 E4.3699
G1 X166.596 Y85.771 E4.38364
G1 X166.6 Y86.08 E4.3969
G1 X166.599 Y148.65 E7.082
G1 X166.59 Y149.377 E7.11321
G1 X166.539 Y150.314 E7.15347
G1 X166.407 Y151.242 E7.1937
G1 X166.198 Y152.156 E7.23393
G1 X165.911 Y153.049 E7.27419
G1 X165.549 Y153.915 E7.31447
G1 X165.115 Y154.746 E7.3547
G1 X164.611 Y155.537 E7.39495
G1 X164.042 Y156.282 E7.43518
G1 X163.411 Y156.977 E7.47546
G1 X162.724 Y157.615 E7.51569
G1 X161.985 Y158.192 E7.55593
G1 X161.199 Y158.704 E7.59618
G1 X160.373 Y159.147 E7.63641
G1 X159.511 Y159.519 E7.6767
G1 X158.622 Y159.815 E7.7169
G1 X157.71 Y160.035 E7.75716
G1 X156.783 Y160.176 E7.7974
G1 X155.899 Y160.237 E7.83543
G1 X155.578 Y160.246 E7.84921
G1 X155.27 Y160.25 E7.86243
G1 X79.965 Y160.249 E11.09403
G1 X79.267 Y160.24 E11.12399
G1 X78.331 Y160.188 E11.16422
G1 X77.402 Y160.056 E11.20449
G1 X76.488 Y159.846 E11.24473
G1 X75.595 Y159.559 E11.28498
G1 X74.73 Y159.196 E11.32524
G1 X73.899 Y158.762 E11.36547
G1 X73.108 Y158.258 E11.40572
G1 X72.363 Y157.688 E11.44598
G1 X71.669 Y157.057 E11.48623
G1 X71.032 Y156.37 E11.52643
G1 X70.455 Y155.63 E11.5667
G1 X69.943 Y154.844 E11.60696
G1 X69.5 Y154.017 E11.64722
G1 X69.129 Y153.156 E11.68745
G1 X68.833 Y152.266 E11.7277
G1 X68.614 Y151.354 E11.76795
G1 X68.473 Y150.427 E11.80819
G1 X68.413 Y149.538 E11.84642
G1 X68.404 Y149.205 E11.86072
G1 X68.4 Y148.908 E11.87347
G1 X68.401 Y86.275 E14.56127
G1 X68.41 Y85.61 E14.58981
G1 X68.463 Y84.674 E14.63004
G1 X68.595 Y83.745 E14.67031
G1 X68.806 Y82.831 E14.71056
G1 X69.094 Y81.939 E14.75079
G1 X69.457 Y81.074 E14.79104
G1 X69.892 Y80.243 E14.8313
G1 X70.396 Y79.453 E14.87151
G1 X70.966 Y78.708 E14.91176
G1 X71.598 Y78.014 E14.95205
G0 F6000 X71.989 Y78.189
G1 F1200 X72.674 Y77.573 E14.99158
G1 X73.41 Y77.02 E15.03109
G1 X74.191 Y76.532 E15.07061
G1 X75.011 Y76.114 E15.1101
G1 X75.865 Y75.769 E15.14963
G1 X76.745 Y75.499 E15.18913
G1 X77.645 Y75.307 E15.22862
G1 X78.559 Y75.193 E15.26815
G1 X79.112 Y75.163 E15.29191
G1 X79.433 Y75.154 E15.3057
G1 X79.73 Y75.15 E15.31844
G1 X154.893 Y75.15 E18.54395
G1 X155.743 Y75.161 E18.58043
G1 X156.662 Y75.214 E18.61994
G1 X157.573 Y75.347 E18.65944
G1 X158.469 Y75.558 E18.69895
G1 X159.343 Y75.846 E18.73844
G1 X160.19 Y76.209 E18.77798
G1 X161.001 Y76.644 E18.81748
G1 X161.771 Y77.148 E18.85697
G1 X162.495 Y77.717 E18.89648
G1 X163.167 Y78.347 E18.93601
G1 X163.782 Y79.032 E18.97552
G1 X164.335 Y79.768 E19.01502
G1 X164.822 Y80.549 E19.05452
G1 X165.239 Y81.37 E19.09404
G1 X165.584 Y82.224 E19.13356
G1 X165.853 Y83.104 E19.17305
G1 X166.045 Y84.005 E19.21259
G1 X166.158 Y84.918 E19.25207
G1 X166.187 Y85.462 E19.27544
G1 X166.196 Y85.782 E19.28918
G1 X166.2 Y86.08 E19.30197
G1 X166.199 Y148.645 E21.98686
G1 X166.19 Y149.372 E22.01806
G1 X166.139 Y150.291 E22.05756
G1 X166.008 Y151.203 E22.09709
G1 X165.798 Y152.099 E22.13659
G1 X165.512 Y152.974 E22.17609
G1 X165.151 Y153.821 E22.2156
G1 X164.717 Y154.633 E22.25511
G1 X164.215 Y155.405 E22.29463
G1 X163.647 Y156.13 E22.33415
G1 X163.019 Y156.803 E22.37366
G1 X162.335 Y157.419 E22.41316
G1 X161.6 Y157.973 E22.45266
G1 X160.82 Y158.462 E22.49216
G1 X160 Y158.881 E22.53168
G1 X159.147 Y159.227 E22.57118
G1 X158.267 Y159.498 E22.6107
G1 X157.367 Y159.691 E22.6502
G1 X156.453 Y159.806 E22.68973
G1 X155.888 Y159.837 E22.71401
G1 X155.567 Y159.846 E22.72779
G1 X155.27 Y159.85 E22.74054
G1 X79.97 Y159.849 E25.97193
G1 X79.272 Y159.84 E26.00188
G1 X78.353 Y159.788 E26.04139
G1 X77.442 Y159.657 E26.08088
G1 X76.546 Y159.447 E26.12037
G1 X75.671 Y159.16 E26.15989
G1 X74.824 Y158.798 E26.19942
G1 X74.012 Y158.364 E26.23893
G1 X73.241 Y157.862 E26.27841
G1 X72.516 Y157.294 E26.31794
G1 X71.843 Y156.665 E26.35747
G1 X71.228 Y155.981 E26.39694
G1 X70.674 Y155.246 E26.43644
G1 X70.186 Y154.465 E26.47596
G1 X69.767 Y153.645 E26.51548
G1 X69.421 Y152.792 E26.55498
G1 X69.151 Y151.912 E26.59448
G1 X68.958 Y151.011 E26.63402
G1 X68.844 Y150.098 E26.67351
G1 X68.813 Y149.527 E26.69804
G1 X68.804 Y149.194 E26.71234
G1 X68.8 Y148.908 E26.72461
G1 X68.801 Y86.281 E29.41216
G1 X68.81 Y85.616 E29.4407
G1 X68.862 Y84.696 E29.48025
G1 X68.994 Y83.785 E29.51975
G1 X69.205 Y82.889 E29.55925
G1 X69.492 Y82.014 E29.59877
G1 X69.855 Y81.168 E29.63827
G1 X70.289 Y80.356 E29.67778
G1 X70.792 Y79.585 E29.71729
G1 X71.361 Y78.861 E29.75681
G1 X71.989 Y78.189 E29.79628
G0 F6000 X72.381 Y78.367
G1 F1200 X73.062 Y77.774 E29.83503
G1 X73.794 Y77.244 E29.87381
G1 X74.569 Y76.781 E29.91255
G1 X75.382 Y76.388 E29.9513
G1 X76.227 Y76.068 E29.99008
G1 X77.096 Y75.825 E30.0288
G1 X77.984 Y75.659 E30.06757
G1 X79.123 Y75.563 E30.11662
G1 X79.444 Y75.554 E30.1304
G1 X79.73 Y75.55 E30.14267
G1 X154.893 Y75.55 E33.36819
G1 X155.737 Y75.561 E33.40441
G1 X156.639 Y75.614 E33.44318
G1 X157.532 Y75.746 E33.48192
G1 X158.41 Y75.957 E33.52067
G1 X159.266 Y76.245 E33.55943
G1 X160.093 Y76.607 E33.59817
G1 X160.885 Y77.042 E33.63695
G1 X161.636 Y77.544 E33.67571
G1 X162.339 Y78.111 E33.71447
G1 X162.989 Y78.738 E33.75322
G1 X163.581 Y79.42 E33.79198
G1 X164.111 Y80.151 E33.83073
G1 X164.573 Y80.927 E33.86948
G1 X164.966 Y81.74 E33.90823
G1 X165.284 Y82.585 E33.94698
G1 X165.527 Y83.455 E33.98574
G1 X165.692 Y84.343 E34.0245
G1 X165.787 Y85.473 E34.07317
G1 X165.796 Y85.793 E34.0869
G1 X165.8 Y86.08 E34.09922
G1 X165.799 Y148.64 E36.78389
G1 X165.79 Y149.367 E36.81509
G1 X165.739 Y150.269 E36.85386
G1 X165.608 Y151.163 E36.89264
G1 X165.399 Y152.041 E36.93137
G1 X165.113 Y152.898 E36.97014
G1 X164.752 Y153.726 E37.0089
G1 X164.32 Y154.518 E37.04762
G1 X163.819 Y155.27 E37.08639
G1 X163.253 Y155.974 E37.12516
G1 X162.628 Y156.625 E37.16389
G1 X161.947 Y157.219 E37.20267
G1 X161.216 Y157.75 E37.24144
G1 X160.442 Y158.214 E37.28016
G1 X159.629 Y158.608 E37.31893
G1 X158.785 Y158.928 E37.35767
G1 X157.915 Y159.173 E37.39646
G1 X157.028 Y159.339 E37.43518
G1 X155.877 Y159.437 E37.48475
G1 X155.556 Y159.446 E37.49853
G1 X155.27 Y159.45 E37.51081
G1 X79.975 Y159.449 E40.74198
G1 X79.277 Y159.44 E40.77194
G1 X78.376 Y159.389 E40.81067
G1 X77.482 Y159.257 E40.84945
G1 X76.604 Y159.048 E40.88818
G1 X75.747 Y158.761 E40.92696
G1 X74.92 Y158.4 E40.96569
G1 X74.127 Y157.967 E41.00446
G1 X73.376 Y157.466 E41.0432
G1 X72.672 Y156.9 E41.08197
G1 X72.021 Y156.274 E41.12072
G1 X71.428 Y155.593 E41.15947
G1 X70.898 Y154.862 E41.19822
G1 X70.434 Y154.087 E41.23698
G1 X70.04 Y153.274 E41.27575
G1 X69.72 Y152.43 E41.31449
G1 X69.476 Y151.56 E41.35326
G1 X69.31 Y150.672 E41.39203
G1 X69.213 Y149.517 E41.44177
G1 X69.204 Y149.184 E41.45607
G1 X69.2 Y148.908 E41.46791
G1 X69.201 Y86.286 E44.15525
G1 X69.21 Y85.621 E44.18379
G1 X69.262 Y84.719 E44.22256
G1 X69.394 Y83.826 E44.2613
G1 X69.604 Y82.948 E44.30004
G1 X69.891 Y82.091 E44.33882
G1 X70.253 Y81.264 E44.37756
G1 X70.686 Y80.472 E44.4163
G1 X71.188 Y79.721 E44.45506
G1 X71.755 Y79.017 E44.49385
G1 X72.381 Y78.367 E44.53258
G1 F2700 E39.53258
;MESH:ISWAM_Holder_v1.stl
G0 F6000 X79.82 Y85.085
G0 X79.82 Y86.17
G0 X154.818 Y86.532
G0 X155 Y148.65
;TYPE:WALL-INNER
G1 F2700 E44.53258
G1 F1200 X80 Y148.65 E47.7511
G1 X80 Y86.35 E50.42461
G1 X155 Y86.35 E53.64313
G1 X155 Y148.65 E56.31664
G0 F6000 X155.4 Y149.05
;TYPE:WALL-OUTER
G1 F1200 X79.6 Y149.05 E59.56949
G1 X79.6 Y85.95 E62.27734
G1 X155.4 Y85.95 E65.53018
G1 X155.4 Y149.05 E68.23803
G0 F6000 X155.13 Y148.78
G0 X154.89 Y148.26
G0 X154.61 Y148.26
;TYPE:SKIN
G1 F1200 X80.39 Y148.26 E71.42307
G1 X80.39 Y86.74 E74.06311
G1 X154.61 Y86.74 E77.24816
G1 X154.61 Y148.26 E79.8882
G1 F2700 E74.8882
G0 F6000 X154.89 Y148.26
G0 X154.89 Y87.133
G1 F2700 E79.8882
G0 F6000 X154.449 Y87.133
G1 F1200 X154.216 Y86.899 E79.90237
G0 F6000 X153.65 Y86.899
G1 F1200 X154.449 Y87.698 E79.95086
G0 F6000 X154.449 Y88.264
G1 F1200 X153.085 Y86.899 E80.03367
G0 F6000 X152.519 Y86.899
G1 F1200 X154.449 Y88.83 E80.15083
G0 F6000 X154.449 Y89.395
G1 F1200 X151.953 Y86.899 E80.30231
G0 F6000 X151.388 Y86.899
G1 F1200 X154.449 Y89.961 E80.48811
G0 F6000 X154.449 Y90.527
G1 F1200 X150.822 Y86.899 E80.70826
G0 F6000 X150.256 Y86.899
G1 F1200 X154.449 Y91.093 E80.96276
G0 F6000 X154.449 Y91.658
G1 F1200 X149.69 Y86.899 E81.25158
G0 F6000 X149.125 Y86.899
G1 F1200 X154.449 Y92.224 E81.57472
G0 F6000 X154.449 Y92.79
G1 F1200 X148.559 Y86.899 E81.9322
G0 F6000 X147.993 Y86.899
G1 F1200 X154.449 Y93.355 E82.32401
G0 F6000 X154.449 Y93.921
G1 F1200 X147.428 Y86.899 E82.75014
G0 F6000 X146.862 Y86.899
G1 F1200 X154.449 Y94.487 E83.21062
G0 F6000 X154.449 Y95.052
G1 F1200 X146.296 Y86.899 E83.70541
G0 F6000 X145.731 Y86.899
G1 F1200 X154.449 Y95.618 E84.23453
G0 F6000 X154.449 Y96.184
G1 F1200 X145.165 Y86.899 E84.798
G0 F6000 X144.599 Y86.899
G1 F1200 X154.449 Y96.749 E85.39578
G0 F6000 X154.449 Y97.315
G1 F1200 X144.034 Y86.899 E86.02789
G0 F6000 X143.468 Y86.899
G1 F1200 X154.449 Y97.881 E86.69434
G0 F6000 X154.449 Y98.446
G1 F1200 X142.902 Y86.899 E87.39512
G0 F6000 X142.337 Y86.899
G1 F1200 X154.449 Y99.012 E88.13021
G0 F6000 X154.449 Y99.578
G1 F1200 X141.771 Y86.899 E88.89966
G0 F6000 X141.205 Y86.899
G1 F1200 X154.449 Y100.143 E89.70342
G0 F6000 X154.449 Y100.709
G1 F1200 X140.64 Y86.899 E90.54151
G0 F6000 X140.074 Y86.899
G1 F1200 X154.449 Y101.275 E91.41394
G0 F6000 X154.449 Y101.841
G1 F1200 X139.508 Y86.899 E92.32072
G0 F6000 X138.942 Y86.899
G1 F1200 X154.449 Y102.406 E93.26183
G0 F6000 X154.449 Y102.972
G1 F1200 X138.377 Y86.899 E94.23725
G0 F6000 X137.811 Y86.899
G1 F1200 X154.449 Y103.538 E95.24702
G0 F6000 X154.449 Y104.103
G1 F1200 X137.245 Y86.899 E96.29111
G0 F6000 X136.68 Y86.899
G1 F1200 X154.449 Y104.669 E97.36953
G0 F6000 X154.449 Y105.235
G1 F1200 X136.114 Y86.899 E98.48229
G0 F6000 X135.548 Y86.899
G1 F1200 X154.449 Y105.8 E99.62937
G0 F6000 X154.449 Y106.366
G1 F1200 X134.983 Y86.899 E100.81077
G0 F6000 X134.417 Y86.899
G1 F1200 X154.449 Y106.932 E102.02652
G0 F6000 X154.449 Y107.497
G1 F1200 X133.851 Y86.899 E103.27659
G0 F6000 X133.286 Y86.899
G1 F1200 X154.449 Y108.063 E104.56098
G0 F6000 X154.449 Y108.629
G1 F1200 X132.72 Y86.899 E105.87972
G0 F6000 X132.154 Y86.899
G1 F1200 X154.449 Y109.194 E107.23278
G0 F6000 X154.449 Y109.76
G1 F1200 X131.589 Y86.899 E108.62016
G0 F6000 X131.023 Y86.899
G1 F1200 X154.449 Y110.326 E110.04189
G0 F6000 X154.449 Y110.892
G1 F1200 X130.457 Y86.899 E111.49797
G0 F6000 X129.891 Y86.899
G1 F1200 X154.449 Y111.457 E112.98837
G0 F6000 X154.449 Y112.023
G1 F1200 X129.326 Y86.899 E114.51309
G0 F6000 X128.76 Y86.899
G1 F1200 X154.449 Y112.589 E116.07216
G0 F6000 X154.449 Y113.154
G1 F1200 X128.194 Y86.899 E117.66555
G0 F6000 X127.629 Y86.899
G1 F1200 X154.449 Y113.72 E119.29325
G0 F6000 X154.449 Y114.286
G1 F1200 X127.063 Y86.899 E120.95531
G0 F6000 X126.497 Y86.899
G1 F1200 X154.449 Y114.851 E122.65169
G0 F6000 X154.449 Y115.417
G1 F1200 X125.932 Y86.899 E124.38238
G0 F6000 X125.366 Y86.899
G1 F1200 X154.449 Y115.983 E126.14743
G0 F6000 X154.449 Y116.548
G1 F1200 X124.8 Y86.899 E127.9468
G0 F6000 X124.235 Y86.899
G1 F1200 X154.449 Y117.114 E129.78048
G0 F6000 X154.449 Y117.68
G1 F1200 X123.669 Y86.899 E131.64852
G0 F6000 X123.103 Y86.899
G1 F1200 X154.449 Y118.245 E133.55087
G0 F6000 X154.449 Y118.811
G1 F1200 X122.538 Y86.899 E135.48755
G0 F6000 X121.972 Y86.899
G1 F1200 X154.449 Y119.377 E137.45857
G0 F6000 X154.449 Y119.942
G1 F1200 X121.406 Y86.899 E139.46392
G0 F6000 X120.841 Y86.899
G1 F1200 X154.449 Y120.508 E141.50358
G0 F6000 X154.449 Y121.074
G1 F1200 X120.275 Y86.899 E143.5776
G0 F6000 X119.709 Y86.899
G1 F1200 X154.449 Y121.64 E145.68596
G0 F6000 X154.449 Y122.205
G1 F1200 X119.143 Y86.899 E147.82864
G0 F6000 X118.578 Y86.899
G1 F1200 X154.449 Y122.771 E150.00565
G0 F6000 X154.449 Y123.337
G1 F1200 X118.012 Y86.899 E152.217
G0 F6000 X117.446 Y86.899
G1 F1200 X154.449 Y123.902 E154.46267
G0 F6000 X154.449 Y124.468
G1 F1200 X116.881 Y86.899 E156.74266
G0 F6000 X116.315 Y86.899
G1 F1200 X154.449 Y125.034 E159.05701
G0 F6000 X154.449 Y125.599
G1 F1200 X115.749 Y86.899 E161.40567
G0 F6000 X115.184 Y86.899
G1 F1200 X154.449 Y126.165 E163.78865
G0 F6000 X154.449 Y126.731
G1 F1200 X114.618 Y86.899 E166.20598
G0 F6000 X114.052 Y86.899
G1 F1200 X154.449 Y127.296 E168.65763
G0 F6000 X154.449 Y127.862
G1 F1200 X113.487 Y86.899 E171.1436
G0 F6000 X112.921 Y86.899
G1 F1200 X154.449 Y128.428 E173.66392
G0 F6000 X154.449 Y128.993
G1 F1200 X112.355 Y86.899 E176.21856
G0 F6000 X111.79 Y86.899
G1 F1200 X154.449 Y129.559 E178.80752
G0 F6000 X154.449 Y130.125
G1 F1200 X111.224 Y86.899 E181.43083
G0 F6000 X110.658 Y86.899
G1 F1200 X154.449 Y130.691 E184.08849
G0 F6000 X154.449 Y131.256
G1 F1200 X110.092 Y86.899 E186.78047
G0 F6000 X109.527 Y86.899
G1 F1200 X154.449 Y131.822 E189.50677
G0 F6000 X154.449 Y132.388
G1 F1200 X108.961 Y86.899 E192.26742
G0 F6000 X108.395 Y86.899
G1 F1200 X154.449 Y132.953 E195.06239
G0 F6000 X154.449 Y133.519
G1 F1200 X107.83 Y86.899 E197.89167
G0 F6000 X107.264 Y86.899
G1 F1200 X154.449 Y134.085 E200.75531
G0 F6000 X154.449 Y134.65
G1 F1200 X106.698 Y86.899 E203.65327
G0 F6000 X106.133 Y86.899
G1 F1200 X154.449 Y135.216 E206.58554
G0 F6000 X154.449 Y135.782
G1 F1200 X105.567 Y86.899 E209.55217
G0 F6000 X105.001 Y86.899
G1 F1200 X154.449 Y136.347 E212.55312
G0 F6000 X154.449 Y136.913
G1 F1200 X104.436 Y86.899 E215.58838
G0 F6000 X103.87 Y86.899
G1 F1200 X154.449 Y137.479 E218.658
G0 F6000 X154.449 Y138.044
G1 F1200 X103.304 Y86.899 E221.76194
G0 F6000 X102.739 Y86.899
G1 F1200 X154.449 Y138.61 E224.90019
G0 F6000 X154.449 Y139.176
G1 F1200 X102.173 Y86.899 E228.0728
G0 F6000 X101.607 Y86.899
G1 F1200 X154.449 Y139.741 E231.27972
G0 F6000 X154.449 Y140.307
G1 F1200 X101.042 Y86.899 E234.52096
G0 F6000 X100.476 Y86.899
G1 F1200 X154.449 Y140.873 E237.79656
G0 F6000 X154.449 Y141.439
G1 F1200 X99.91 Y86.899 E241.1065
G0 F6000 X99.344 Y86.899
G1 F1200 X154.449 Y142.004 E244.45077
G0 F6000 X154.449 Y142.57
G1 F1200 X98.779 Y86.899 E247.82935
G0 F6000 X98.213 Y86.899
G1 F1200 X154.449 Y143.136 E251.24228
G0 F6000 X154.449 Y143.701
G1 F1200 X97.647 Y86.899 E254.68954
G0 F6000 X97.082 Y86.899
G1 F1200 X154.449 Y144.267 E258.17111
G0 F6000 X154.449 Y144.833
G1 F1200 X96.516 Y86.899 E261.68703
G0 F6000 X95.95 Y86.899
G1 F1200 X154.449 Y145.398 E265.23727
G0 F6000 X154.449 Y145.964
G1 F1200 X95.385 Y86.899 E268.82183
G0 F6000 X94.819 Y86.899
G1 F1200 X154.449 Y146.53 E272.44075
G0 F6000 X154.449 Y147.095
