;FLAVOR:Marlin
;TIME:7485
;Filament used: 6.82076m
;Layer height: 0.28
;MINX:68.674
;MINY:68.675
;MINZ:0.28
;MAXX:166.326
;MAXY:166.326
;MAXZ:36.12
;Generated with Cura_SteamEngine 4.12.1
M140 S50
M105
M190 S50
M104 S200
M105
M109 S200
M82 ;absolute extrusion mode
; Ender 3 Custom Start G-code
G92 E0 ; Reset Extruder
G28 ; Home all axes
G1 Z2.0 F3000 ; Move Z Axis up little to prevent scratching of Heat Bed
G1 X0.1 Y20 Z0.3 F5000.0 ; Move to start position
G1 X0.1 Y200.0 Z0.3 F1500.0 E15 ; Draw the first line
G1 X0.4 Y200.0 Z0.3 F5000.0 ; Move to side a little
G1 X0.4 Y20 Z0.3 F1500.0 E30 ; Draw the second line
G92 E0 ; Reset Extruder
G1 Z2.0 F3000 ; Move Z Axis up little to prevent scratching of Heat Bed
G1 X5 Y20 Z0.3 F5000.0 ; Move over to prevent blob squish
G92 E0
G92 E0
G1 F2700 E-5
;LAYER_COUNT:129
;LAYER:0
M107
G0 F6000 X83.064 Y82.888 Z0.28
;TYPE:SKIRT
G1 F2700 E0
G1 F1200 X83.949 Y82.051 E0.05227
G1 X84.12 Y81.892 E0.06229
G1 X85.722 Y80.442 E0.15502
G1 X86.099 Y80.111 E0.17655
G1 X86.622 Y79.68 E0.20563
G1 X87.593 Y78.928 E0.25834
G1 X87.774 Y78.79 E0.2681
G1 X89.358 Y77.615 E0.35274
G1 X89.914 Y77.215 E0.38213
G1 X90.462 Y76.847 E0.41046
G1 X91.511 Y76.186 E0.46367
G1 X91.721 Y76.057 E0.47424
G1 X93.51 Y74.985 E0.56374
G1 X93.989 Y74.707 E0.58751
G1 X94.603 Y74.377 E0.61742
G1 X95.682 Y73.839 E0.66916
G1 X95.888 Y73.739 E0.67899
G1 X97.794 Y72.838 E0.76946
G1 X98.294 Y72.61 E0.79304
G1 X98.939 Y72.341 E0.82303
G1 X100.072 Y71.909 E0.87507
G1 X100.282 Y71.831 E0.88468
G1 X102.178 Y71.152 E0.97111
G1 X102.785 Y70.944 E0.99864
G1 X103.438 Y70.744 E1.02795
G1 X104.633 Y70.418 E1.08111
G1 X104.853 Y70.36 E1.09087
G1 X106.92 Y69.843 E1.1823
G1 X107.437 Y69.722 E1.20509
G1 X108.101 Y69.588 E1.23416
G1 X109.284 Y69.387 E1.28565
G1 X109.516 Y69.351 E1.29573
G1 X111.64 Y69.037 E1.38787
G1 X112.153 Y68.968 E1.41008
G1 X112.851 Y68.897 E1.44019
G1 X114.023 Y68.815 E1.49061
G1 X114.249 Y68.801 E1.50032
G1 X116.406 Y68.696 E1.593
G1 X116.91 Y68.678 E1.61464
G1 X117.61 Y68.675 E1.64468
G1 X118.863 Y68.71 E1.69847
G1 X119.101 Y68.72 E1.70869
G1 X121.241 Y68.827 E1.80064
G1 X121.702 Y68.856 E1.82047
G1 X122.398 Y68.922 E1.85047
G1 X123.633 Y69.079 E1.90389
G1 X123.858 Y69.11 E1.91364
G1 X125.966 Y69.423 E2.00509
G1 X126.465 Y69.504 E2.02679
G1 X127.158 Y69.64 E2.05709
G1 X128.341 Y69.911 E2.10918
G1 X128.556 Y69.962 E2.11866
G1 X130.47 Y70.441 E2.20333
G1 X131.134 Y70.617 E2.23281
G1 X131.783 Y70.811 E2.26187
G1 X132.94 Y71.197 E2.31422
G1 X133.163 Y71.274 E2.32434
G1 X135.059 Y71.952 E2.41075
G1 X135.644 Y72.17 E2.43754
G1 X136.296 Y72.437 E2.46778
G1 X137.434 Y72.947 E2.52129
G1 X137.641 Y73.043 E2.53108
G1 X139.548 Y73.946 E2.62163
G1 X140.004 Y74.169 E2.64341
G1 X140.631 Y74.501 E2.67386
G1 X141.672 Y75.096 E2.72531
G1 X141.871 Y75.213 E2.73522
G1 X143.693 Y76.306 E2.8264
G1 X144.136 Y76.579 E2.84873
G1 X144.737 Y76.978 E2.87969
G1 X145.729 Y77.683 E2.93191
G1 X145.908 Y77.813 E2.94141
G1 X147.615 Y79.08 E3.03263
G1 X148.045 Y79.409 E3.05587
G1 X148.575 Y79.841 E3.08521
G1 X149.474 Y80.622 E3.13631
G1 X149.646 Y80.775 E3.14619
G1 X151.253 Y82.233 E3.23931
G1 X151.622 Y82.578 E3.26099
G1 X152.1 Y83.053 E3.28991
G1 X152.962 Y83.964 E3.34373
G1 X153.121 Y84.136 E3.35378
G1 X154.561 Y85.726 E3.44584
G1 X154.89 Y86.101 E3.46724
G1 X155.311 Y86.611 E3.49562
G1 X156.077 Y87.598 E3.54924
G1 X156.223 Y87.791 E3.55962
G1 X157.49 Y89.501 E3.65095
G1 X157.78 Y89.905 E3.67229
G1 X158.157 Y90.466 E3.7013
G1 X158.824 Y91.527 E3.75508
G1 X158.947 Y91.728 E3.76519
G1 X160.035 Y93.546 E3.85611
G1 X160.29 Y93.986 E3.87794
G1 X160.615 Y94.59 E3.90737
G1 X161.169 Y95.7 E3.96061
G1 X161.27 Y95.908 E3.97053
G1 X162.143 Y97.755 E4.0582
G1 X162.394 Y98.305 E4.08414
G1 X162.664 Y98.95 E4.11415
G1 X163.08 Y100.04 E4.16422
G1 X163.16 Y100.255 E4.17406
G1 X163.849 Y102.18 E4.2618
G1 X164.056 Y102.785 E4.28924
G1 X164.256 Y103.437 E4.31851
G1 X164.584 Y104.639 E4.37198
G1 X164.642 Y104.862 E4.38187
G1 X165.154 Y106.909 E4.47242
G1 X165.269 Y107.394 E4.49381
G1 X165.411 Y108.092 E4.52437
G1 X165.616 Y109.3 E4.57695
G1 X165.653 Y109.53 E4.58695
G1 X165.963 Y111.632 E4.67813
G1 X166.03 Y112.127 E4.69957
G1 X166.102 Y112.838 E4.73023
G1 X166.202 Y114.298 E4.79304
G1 X166.304 Y116.398 E4.88326
G1 X166.323 Y116.927 E4.90598
G1 X166.326 Y117.633 E4.93627
G1 X166.292 Y118.835 E4.98788
G1 X166.283 Y119.065 E4.99775
G1 X166.175 Y121.231 E5.09082
G1 X166.144 Y121.72 E5.11185
G1 X166.079 Y122.405 E5.14137
G1 X165.928 Y123.598 E5.19298
G1 X165.896 Y123.832 E5.20311
G1 X165.58 Y125.951 E5.29505
G1 X165.502 Y126.436 E5.31613
G1 X165.362 Y127.154 E5.34753
G1 X165.029 Y128.596 E5.41104
G1 X164.52 Y130.623 E5.50072
G1 X164.379 Y131.151 E5.52418
G1 X164.184 Y131.8 E5.55326
G1 X163.807 Y132.928 E5.60429
G1 X163.732 Y133.143 E5.61407
G1 X162.994 Y135.207 E5.70813
G1 X162.831 Y135.643 E5.72811
G1 X162.566 Y136.288 E5.75803
G1 X162.049 Y137.442 E5.8123
G1 X161.955 Y137.647 E5.82197
G1 X161.139 Y139.373 E5.9039
G1 X160.828 Y140.009 E5.93428
G1 X160.494 Y140.64 E5.96492
G1 X159.889 Y141.697 E6.01719
G1 X159.778 Y141.886 E6.02659
G1 X158.682 Y143.714 E6.11806
G1 X158.413 Y144.149 E6.14001
G1 X158.025 Y144.734 E6.17013
G1 X157.324 Y145.721 E6.22208
G1 X157.191 Y145.903 E6.23176
G1 X155.938 Y147.593 E6.32204
G1 X155.616 Y148.016 E6.34485
G1 X155.163 Y148.571 E6.3756
G1 X154.349 Y149.507 E6.42883
G1 X154.199 Y149.676 E6.43852
G1 X152.767 Y151.254 E6.52997
G1 X152.422 Y151.623 E6.55165
G1 X151.947 Y152.101 E6.58056
G1 X151.036 Y152.963 E6.63439
G1 X150.864 Y153.122 E6.64444
G1 X149.278 Y154.559 E6.73628
G1 X148.901 Y154.89 E6.75781
G1 X148.378 Y155.321 E6.78689
G1 X147.407 Y156.073 E6.8396
G1 X147.226 Y156.211 E6.84936
G1 X145.642 Y157.386 E6.934
G1 X145.086 Y157.786 E6.96339
G1 X144.53 Y158.16 E6.99215
G1 X143.482 Y158.819 E7.04527
G1 X141.63 Y159.932 E7.138
G1 X141.002 Y160.297 E7.16917
G1 X140.416 Y160.613 E7.19774
G1 X139.31 Y161.166 E7.2508
G1 X139.089 Y161.273 E7.26134
G1 X137.171 Y162.178 E7.35235
G1 X136.698 Y162.393 E7.37465
G1 X136.074 Y162.654 E7.40367
G1 X134.936 Y163.089 E7.45596
G1 X134.713 Y163.171 E7.46615
G1 X132.726 Y163.881 E7.5567
G1 X132.234 Y164.05 E7.57903
G1 X131.557 Y164.259 E7.60943
G1 X130.37 Y164.583 E7.66223
G1 X130.142 Y164.642 E7.67234
G1 X128.124 Y165.146 E7.7616
G1 X127.567 Y165.277 E7.78615
G1 X126.89 Y165.414 E7.8158
G1 X125.712 Y165.614 E7.86707
G1 X125.483 Y165.65 E7.87702
G1 X123.363 Y165.963 E7.96898
G1 X122.866 Y166.03 E7.9905
G1 X122.161 Y166.102 E8.02091
G1 X120.928 Y166.188 E8.07396
G1 X120.702 Y166.202 E8.08367
G1 X118.601 Y166.304 E8.17394
G1 X118.071 Y166.323 E8.1967
G1 X117.366 Y166.326 E8.22695
G1 X116.165 Y166.292 E8.27851
G1 X115.935 Y166.283 E8.28839
G1 X113.769 Y166.175 E8.38146
G1 X113.28 Y166.144 E8.40248
G1 X112.595 Y166.079 E8.43201
G1 X111.402 Y165.928 E8.48362
G1 X111.168 Y165.896 E8.49375
G1 X109.04 Y165.579 E8.58608
G1 X108.533 Y165.497 E8.60812
G1 X107.831 Y165.36 E8.63881
G1 X106.688 Y165.098 E8.68914
G1 X106.473 Y165.046 E8.69863
G1 X104.356 Y164.515 E8.79229
G1 X103.885 Y164.39 E8.8132
G1 X103.221 Y164.191 E8.84295
G1 X102.036 Y163.795 E8.89657
G1 X101.811 Y163.717 E8.90678
G1 X99.813 Y163 E8.99788
G1 X99.344 Y162.825 E9.01936
G1 X98.693 Y162.558 E9.04956
G1 X97.599 Y162.068 E9.101
G1 X97.397 Y161.975 E9.11054
G1 X95.408 Y161.035 E9.20495
G1 X95.004 Y160.837 E9.22426
G1 X94.386 Y160.509 E9.25428
G1 X93.298 Y159.887 E9.30806
G1 X93.101 Y159.771 E9.31787
G1 X91.314 Y158.699 E9.4073
G1 X90.845 Y158.409 E9.43096
G1 X90.26 Y158.021 E9.46109
G1 X89.276 Y157.322 E9.51288
G1 X89.095 Y157.191 E9.52247
G1 X87.518 Y156.022 E9.60671
G1 X86.951 Y155.589 E9.63733
G1 X86.425 Y155.16 E9.66646
G1 X85.527 Y154.38 E9.7175
G1 X85.354 Y154.226 E9.72744
G1 X83.757 Y152.777 E9.81998
G1 X83.386 Y152.431 E9.84175
G1 X82.898 Y151.947 E9.87124
G1 X82.036 Y151.036 E9.92506
G1 X81.877 Y150.864 E9.93512
G1 X80.443 Y149.281 E10.02678
G1 X80.117 Y148.91 E10.04797
G1 X79.684 Y148.386 E10.07714
G1 X78.924 Y147.405 E10.13039
G1 X78.783 Y147.219 E10.14041
G1 X77.5 Y145.486 E10.23294
G1 X77.221 Y145.098 E10.25345
G1 X76.835 Y144.523 E10.28317
G1 X76.178 Y143.476 E10.33621
G1 X76.061 Y143.286 E10.34579
G1 X74.972 Y141.468 E10.43673
G1 X74.7 Y140.998 E10.46004
G1 X74.379 Y140.4 E10.48916
G1 X73.843 Y139.326 E10.54067
G1 X73.741 Y139.117 E10.55065
G1 X72.835 Y137.198 E10.64172
G1 X72.607 Y136.697 E10.66534
G1 X72.342 Y136.063 E10.69483
G1 X71.905 Y134.918 E10.74742
G1 X71.825 Y134.703 E10.75727
G1 X71.119 Y132.726 E10.84735
G1 X70.95 Y132.234 E10.86968
G1 X70.74 Y131.554 E10.90022
G1 X70.418 Y130.373 E10.95275
G1 X70.361 Y130.155 E10.96242
G1 X69.842 Y128.08 E11.05421
G1 X69.721 Y127.563 E11.077
G1 X69.587 Y126.899 E11.10606
G1 X69.386 Y125.716 E11.15756
G1 X69.35 Y125.484 E11.16763
G1 X69.036 Y123.358 E11.25986
G1 X68.969 Y122.859 E11.28146
G1 X68.898 Y122.165 E11.3114
G1 X68.812 Y120.939 E11.36414
G1 X68.798 Y120.707 E11.37412
G1 X68.696 Y118.604 E11.46447
G1 X68.677 Y118.074 E11.48723
G1 X68.674 Y117.369 E11.51748
G1 X68.708 Y116.167 E11.56909
G1 X68.717 Y115.939 E11.57888
G1 X68.822 Y113.826 E11.66967
G1 X68.857 Y113.274 E11.6934
G1 X68.923 Y112.581 E11.72328
G1 X69.076 Y111.379 E11.77527
G1 X69.107 Y111.156 E11.78494
G1 X69.422 Y109.034 E11.877
G1 X69.503 Y108.535 E11.89869
G1 X69.639 Y107.842 E11.929
G1 X69.91 Y106.659 E11.98108
G1 X69.961 Y106.444 E11.99056
G1 X70.481 Y104.372 E12.08223
G1 X70.613 Y103.876 E12.10426
G1 X70.808 Y103.224 E12.13346
G1 X71.203 Y102.04 E12.18703
G1 X71.283 Y101.808 E12.19756
G1 X71.998 Y99.817 E12.28834
G1 X72.172 Y99.35 E12.30973
G1 X72.444 Y98.689 E12.3404
G1 X73.029 Y97.389 E12.40158
G1 X73.946 Y95.452 E12.49355
G1 X74.169 Y94.996 E12.51533
G1 X74.501 Y94.369 E12.54578
G1 X75.099 Y93.323 E12.59748
G1 X75.214 Y93.127 E12.60723
G1 X76.297 Y91.321 E12.6976
G1 X76.574 Y90.871 E12.72028
G1 X76.974 Y90.267 E12.75137
G1 X77.69 Y89.259 E12.80443
G1 X77.823 Y89.076 E12.81413
G1 X79.072 Y87.393 E12.90407
G1 X79.395 Y86.97 E12.92691
G1 X79.836 Y86.429 E12.95686
G1 X80.641 Y85.503 E13.00952
G1 X80.795 Y85.33 E13.01946
G1 X82.216 Y83.764 E13.1102
G1 X82.58 Y83.374 E13.1331
G1 X83.064 Y82.888 E13.16253
G0 F6000 X83.338 Y83.179
G1 F1200 X84.223 Y82.342 E13.2148
G1 X84.389 Y82.189 E13.22449
G1 X85.986 Y80.742 E13.31697
G1 X86.363 Y80.411 E13.3385
G1 X86.867 Y79.996 E13.36652
G1 X87.838 Y79.244 E13.41922
G1 X88.013 Y79.112 E13.42863
G1 X89.733 Y77.837 E13.52051
G1 X90.147 Y77.54 E13.54237
G1 X90.675 Y77.185 E13.56968
G1 X91.724 Y76.524 E13.62289
G1 X91.926 Y76.4 E13.63306
G1 X93.711 Y75.331 E13.72234
G1 X94.19 Y75.053 E13.74611
G1 X94.781 Y74.735 E13.77491
G1 X95.86 Y74.197 E13.82665
G1 X96.059 Y74.1 E13.83615
G1 X97.96 Y73.202 E13.92638
G1 X98.46 Y72.974 E13.94996
G1 X99.082 Y72.715 E13.97887
G1 X100.215 Y72.283 E14.03091
G1 X100.417 Y72.208 E14.04015
G1 X102.468 Y71.475 E14.13362
G1 X102.914 Y71.323 E14.15384
G1 X103.543 Y71.13 E14.18208
G1 X104.738 Y70.804 E14.23523
G1 X104.951 Y70.748 E14.24468
G1 X107.011 Y70.233 E14.33581
G1 X107.528 Y70.112 E14.35859
G1 X108.168 Y69.983 E14.38661
G1 X109.351 Y69.782 E14.4381
G1 X109.575 Y69.746 E14.44784
G1 X111.554 Y69.453 E14.53369
G1 X112.206 Y69.365 E14.56192
G1 X112.879 Y69.296 E14.59096
G1 X114.051 Y69.214 E14.64137
G1 X114.269 Y69.201 E14.65075
G1 X116.421 Y69.096 E14.74321
G1 X116.925 Y69.078 E14.76485
G1 X117.599 Y69.075 E14.79377
G1 X118.852 Y69.11 E14.84756
G1 X119.082 Y69.119 E14.85744
G1 X121.215 Y69.226 E14.94909
G1 X121.676 Y69.255 E14.96891
G1 X122.348 Y69.319 E14.99788
G1 X123.583 Y69.476 E15.05131
G1 X123.8 Y69.506 E15.06071
G1 X125.901 Y69.818 E15.15186
G1 X126.4 Y69.899 E15.17355
G1 X127.069 Y70.03 E15.20281
G1 X128.252 Y70.301 E15.25489
G1 X128.458 Y70.35 E15.26397
G1 X130.528 Y70.869 E15.35555
G1 X131.031 Y71.003 E15.37789
G1 X131.657 Y71.191 E15.40594
G1 X132.814 Y71.577 E15.45828
G1 X133.028 Y71.651 E15.468
G1 X135.062 Y72.379 E15.56071
G1 X135.504 Y72.544 E15.58096
G1 X136.132 Y72.802 E15.61009
G1 X137.27 Y73.312 E15.66361
G1 X137.47 Y73.404 E15.67305
G1 X139.373 Y74.306 E15.76343
G1 X139.829 Y74.529 E15.78521
G1 X140.432 Y74.848 E15.81449
G1 X141.473 Y75.443 E15.86594
G1 X141.665 Y75.556 E15.8755
G1 X143.483 Y76.647 E15.96649
G1 X143.926 Y76.92 E15.98882
G1 X144.506 Y77.304 E16.01867
G1 X145.498 Y78.009 E16.0709
G1 X145.67 Y78.134 E16.08002
G1 X147.372 Y79.397 E16.17097
G1 X147.802 Y79.726 E16.19421
G1 X148.313 Y80.143 E16.22251
G1 X149.212 Y80.924 E16.27361
G1 X149.378 Y81.071 E16.28313
G1 X150.859 Y82.413 E16.3689
G1 X151.349 Y82.87 E16.39765
G1 X151.81 Y83.328 E16.42554
G1 X152.672 Y84.239 E16.47936
G1 X152.825 Y84.404 E16.48901
G1 X154.26 Y85.989 E16.58077
G1 X154.589 Y86.364 E16.60218
G1 X154.995 Y86.856 E16.62955
G1 X155.761 Y87.843 E16.68316
G1 X155.902 Y88.029 E16.69318
G1 X157.165 Y89.735 E16.78427
G1 X157.455 Y90.139 E16.80561
G1 X157.818 Y90.678 E16.8335
G1 X158.485 Y91.739 E16.88728
G1 X158.604 Y91.934 E16.89708
G1 X159.689 Y93.747 E16.98775
G1 X159.944 Y94.187 E17.00958
G1 X160.257 Y94.768 E17.0379
G1 X160.811 Y95.878 E17.09114
G1 X160.909 Y96.079 E17.10073
G1 X161.779 Y97.921 E17.18815
G1 X162.03 Y98.471 E17.2141
G1 X162.29 Y99.092 E17.24299
G1 X162.706 Y100.182 E17.29305
G1 X162.783 Y100.39 E17.30257
G1 X163.472 Y102.315 E17.39031
G1 X163.677 Y102.914 E17.41748
G1 X163.87 Y103.543 E17.44572
G1 X164.198 Y104.745 E17.49918
G1 X164.254 Y104.959 E17.50868
G1 X164.765 Y107.001 E17.59901
G1 X164.88 Y107.486 E17.6204
G1 X165.017 Y108.159 E17.64987
G1 X165.222 Y109.367 E17.70245
G1 X165.257 Y109.589 E17.7121
G1 X165.566 Y111.685 E17.80302
G1 X165.633 Y112.18 E17.82445
G1 X165.703 Y112.866 E17.85404
G1 X165.789 Y114.101 E17.90717
G1 X165.802 Y114.317 E17.91646
G1 X165.904 Y116.413 E18.00651
G1 X165.923 Y116.942 E18.02922
G1 X165.926 Y117.622 E18.05841
G1 X165.892 Y118.824 E18.11001
G1 X165.883 Y119.045 E18.1195
G1 X165.776 Y121.206 E18.21235
G1 X165.745 Y121.695 E18.23338
G1 X165.682 Y122.355 E18.26183
G1 X165.531 Y123.548 E18.31343
G1 X165.5 Y123.774 E18.32322
G1 X165.186 Y125.887 E18.41489
G1 X165.108 Y126.372 E18.43597
G1 X164.972 Y127.065 E18.46628
G1 X164.641 Y128.499 E18.52944
G1 X164.175 Y130.36 E18.61177
G1 X163.992 Y131.048 E18.64232
G1 X163.804 Y131.673 E18.67032
G1 X163.427 Y132.801 E18.72136
G1 X163.356 Y133.008 E18.73075
G1 X162.619 Y135.067 E18.8246
G1 X162.456 Y135.503 E18.84458
G1 X162.201 Y136.125 E18.87343
G1 X161.684 Y137.279 E18.92769
G1 X161.593 Y137.476 E18.937
G1 X160.716 Y139.328 E19.02494
G1 X160.469 Y139.833 E19.04906
G1 X160.147 Y140.442 E19.07863
G1 X159.542 Y141.499 E19.13089
G1 X158.419 Y143.376 E19.22476
G1 X158.072 Y143.939 E19.25314
G1 X157.699 Y144.502 E19.28212
G1 X156.998 Y145.489 E19.33407
G1 X156.87 Y145.665 E19.34341
G1 X155.619 Y147.35 E19.43347
G1 X155.297 Y147.773 E19.45628
G1 X154.861 Y148.309 E19.48593
G1 X154.047 Y149.245 E19.53916
G1 X153.903 Y149.408 E19.5485
G1 X152.586 Y150.861 E19.63265
G1 X152.13 Y151.35 E19.66135
G1 X151.672 Y151.811 E19.68923
G1 X150.761 Y152.673 E19.74305
G1 X150.596 Y152.826 E19.75271
G1 X149.014 Y154.259 E19.84431
G1 X148.637 Y154.59 E19.86584
G1 X148.133 Y155.005 E19.89386
G1 X147.162 Y155.757 E19.94656
G1 X146.987 Y155.889 E19.95597
G1 X145.267 Y157.164 E20.04785
G1 X144.853 Y157.461 E20.06971
G1 X144.317 Y157.821 E20.09742
G1 X143.269 Y158.48 E20.15055
G1 X143.08 Y158.596 E20.16006
G1 X141.276 Y159.677 E20.25031
G1 X140.802 Y159.951 E20.27381
G1 X140.237 Y160.255 E20.30134
G1 X139.131 Y160.808 E20.35441
G1 X138.918 Y160.912 E20.36458
G1 X137.005 Y161.814 E20.45534
G1 X136.532 Y162.029 E20.47764
G1 X135.931 Y162.28 E20.50559
G1 X134.793 Y162.715 E20.55787
G1 X134.579 Y162.795 E20.56767
G1 X132.596 Y163.503 E20.65803
G1 X132.104 Y163.672 E20.68036
G1 X131.451 Y163.873 E20.70968
G1 X130.264 Y164.197 E20.76248
G1 X130.045 Y164.254 E20.77219
G1 X128.033 Y164.756 E20.86118
G1 X127.476 Y164.887 E20.88573
G1 X126.823 Y165.019 E20.91432
G1 X125.424 Y165.255 E20.97521
G1 X123.309 Y165.567 E21.06695
G1 X122.812 Y165.634 E21.08847
G1 X122.134 Y165.703 E21.11772
G1 X120.901 Y165.789 E21.17076
G1 X120.683 Y165.802 E21.18013
G1 X118.587 Y165.904 E21.27018
