;FLAVOR:Marlin
;TIME:9759
;Filament used: 7.87155m
;Layer height: 0.28
;MINX:69.946
;MINY:69.945
;MINZ:0.28
;MAXX:165.056
;MAXY:165.056
;MAXZ:36.96
;Generated with Cura_SteamEngine 4.12.1
M140 S50
M105
M190 S50
M104 S200
M105
M109 S200
M82 ;absolute extrusion mode
; Ender 3 Custom Start G-code
G92 E0 ; Reset Extruder
G28 ; Home all axes
G1 Z2.0 F3000 ; Move Z Axis up little to prevent scratching of Heat Bed
G1 X0.1 Y20 Z0.3 F5000.0 ; Move to start position
G1 X0.1 Y200.0 Z0.3 F1500.0 E15 ; Draw the first line
G1 X0.4 Y200.0 Z0.3 F5000.0 ; Move to side a little
G1 X0.4 Y20 Z0.3 F1500.0 E30 ; Draw the second line
G92 E0 ; Reset Extruder
G1 Z2.0 F3000 ; Move Z Axis up little to prevent scratching of Heat Bed
G1 X5 Y20 Z0.3 F5000.0 ; Move over to prevent blob squish
G92 E0
G92 E0
G1 F2700 E-5
;LAYER_COUNT:132
;LAYER:0
M107
G0 F6000 X83.953 Y83.795 Z0.28
;TYPE:SKIRT
G1 F2700 E0
G1 F1200 X84.849 Y82.947 E0.05294
G1 X85.022 Y82.786 E0.06308
G1 X86.52 Y81.43 E0.14979
G1 X86.923 Y81.077 E0.17278
G1 X87.43 Y80.66 E0.20095
G1 X88.379 Y79.924 E0.25249
G1 X88.569 Y79.78 E0.26272
G1 X90.216 Y78.56 E0.35068
G1 X90.63 Y78.263 E0.37254
G1 X91.182 Y77.892 E0.40109
G1 X92.221 Y77.238 E0.45377
G1 X92.428 Y77.111 E0.46419
G1 X94.158 Y76.076 E0.5507
G1 X94.596 Y75.823 E0.57241
G1 X95.186 Y75.506 E0.60115
G1 X96.286 Y74.957 E0.65391
G1 X96.499 Y74.853 E0.66408
G1 X98.205 Y74.047 E0.74505
G1 X98.822 Y73.767 E0.77413
G1 X99.43 Y73.513 E0.80241
G1 X100.553 Y73.084 E0.85399
G1 X100.765 Y73.006 E0.86369
G1 X102.522 Y72.376 E0.94379
G1 X103.168 Y72.155 E0.97309
G1 X103.809 Y71.958 E1.00187
G1 X105.007 Y71.631 E1.05516
G1 X105.23 Y71.573 E1.06504
G1 X107.153 Y71.092 E1.15011
G1 X107.664 Y70.972 E1.17263
G1 X108.345 Y70.835 E1.20244
G1 X109.581 Y70.626 E1.25624
G1 X109.801 Y70.591 E1.2658
G1 X111.764 Y70.301 E1.35095
G1 X112.305 Y70.229 E1.37437
G1 X112.996 Y70.159 E1.40418
G1 X114.195 Y70.076 E1.45575
G1 X114.415 Y70.063 E1.46521
G1 X116.268 Y69.972 E1.54483
G1 X116.947 Y69.948 E1.57398
G1 X117.633 Y69.945 E1.60342
G1 X118.857 Y69.979 E1.65597
G1 X119.092 Y69.988 E1.66606
G1 X121.062 Y70.086 E1.7507
G1 X121.611 Y70.121 E1.77431
G1 X122.298 Y70.187 E1.80393
G1 X123.478 Y70.337 E1.85497
G1 X123.707 Y70.368 E1.86489
G1 X125.552 Y70.642 E1.94494
G1 X126.199 Y70.746 E1.97306
G1 X126.919 Y70.886 E2.00453
G1 X128.127 Y71.164 E2.05773
G1 X128.331 Y71.213 E2.06673
G1 X130.251 Y71.695 E2.15168
G1 X130.753 Y71.828 E2.17397
G1 X131.423 Y72.028 E2.20397
G1 X132.572 Y72.412 E2.25596
G1 X132.791 Y72.488 E2.26591
G1 X134.704 Y73.174 E2.35312
G1 X135.151 Y73.341 E2.3736
G1 X135.799 Y73.607 E2.40366
G1 X136.984 Y74.138 E2.45938
G1 X137.193 Y74.234 E2.46925
G1 X138.924 Y75.054 E2.55145
G1 X139.394 Y75.283 E2.57389
G1 X140.041 Y75.626 E2.60531
G1 X141.082 Y76.222 E2.65679
G1 X141.27 Y76.332 E2.66614
G1 X142.991 Y77.364 E2.75225
G1 X143.426 Y77.632 E2.77418
G1 X144.026 Y78.029 E2.80505
G1 X145.01 Y78.728 E2.85685
G1 X145.195 Y78.862 E2.86665
G1 X146.83 Y80.077 E2.95407
G1 X147.224 Y80.378 E2.97534
G1 X147.763 Y80.817 E3.00518
G1 X148.681 Y81.615 E3.05737
G1 X150.255 Y83.04 E3.14849
G1 X150.744 Y83.496 E3.17718
G1 X151.222 Y83.971 E3.2061
G1 X152.065 Y84.863 E3.25877
G1 X152.218 Y85.028 E3.26843
G1 X153.457 Y86.394 E3.34757
G1 X153.924 Y86.926 E3.37794
G1 X154.332 Y87.42 E3.40544
G1 X155.075 Y88.377 E3.45743
G1 X155.223 Y88.573 E3.46797
G1 X156.439 Y90.216 E3.55569
G1 X156.728 Y90.619 E3.57697
G1 X157.098 Y91.169 E3.60542
G1 X157.764 Y92.227 E3.65907
G1 X157.89 Y92.431 E3.66936
G1 X158.809 Y93.964 E3.74606
G1 X159.291 Y94.796 E3.78732
G1 X159.606 Y95.381 E3.81583
G1 X159.775 Y95.719 E3.83205
G1 X159.883 Y95.941 E3.84264
G1 X161.005 Y98.32 E3.95552
G1 X161.231 Y98.818 E3.97899
G1 X161.489 Y99.437 E4.00777
G1 X161.917 Y100.557 E4.05922
G1 X161.999 Y100.779 E4.06938
G1 X162.657 Y102.621 E4.15331
G1 X162.837 Y103.146 E4.17713
G1 X163.043 Y103.816 E4.20721
G1 X163.368 Y105.006 E4.26015
G1 X163.427 Y105.232 E4.27017
G1 X163.906 Y107.146 E4.35484
G1 X164.029 Y107.668 E4.37786
G1 X164.167 Y108.353 E4.40784
G1 X164.37 Y109.551 E4.45999
G1 X164.405 Y109.772 E4.46959
G1 X164.704 Y111.79 E4.55713
G1 X164.769 Y112.279 E4.5783
G1 X164.838 Y112.96 E4.60768
G1 X164.923 Y114.175 E4.65994
G1 X164.937 Y114.403 E4.66975
G1 X165.034 Y116.399 E4.7555
G1 X165.053 Y116.927 E4.77818
G1 X165.056 Y117.637 E4.80865
G1 X165.022 Y118.829 E4.85982
G1 X165.013 Y119.05 E4.86931
G1 X164.913 Y121.078 E4.95645
G1 X164.877 Y121.63 E4.98018
G1 X164.813 Y122.294 E5.00881
G1 X164.663 Y123.48 E5.06011
G1 X164.63 Y123.717 E5.07038
G1 X164.341 Y125.66 E5.15468
G1 X164.214 Y126.436 E5.18842
G1 X164.103 Y127.013 E5.21364
G1 X164.034 Y127.328 E5.22748
G1 X163.958 Y127.652 E5.24176
G1 X163.302 Y130.261 E5.3572
G1 X163.167 Y130.769 E5.37976
G1 X162.967 Y131.436 E5.40964
G1 X162.574 Y132.61 E5.46277
G1 X162.5 Y132.825 E5.47253
G1 X161.821 Y134.72 E5.55891
G1 X161.662 Y135.147 E5.57847
G1 X161.389 Y135.811 E5.60927
G1 X160.882 Y136.941 E5.66242
G1 X160.787 Y137.147 E5.67216
G1 X159.933 Y138.949 E5.75773
G1 X159.698 Y139.429 E5.78067
G1 X159.365 Y140.056 E5.81114
G1 X158.772 Y141.092 E5.86236
G1 X158.661 Y141.282 E5.8718
G1 X157.636 Y142.99 E5.95729
G1 X157.364 Y143.431 E5.97952
G1 X156.97 Y144.026 E6.01015
G1 X156.259 Y145.027 E6.06284
G1 X156.126 Y145.21 E6.07254
G1 X154.943 Y146.804 E6.15773
G1 X154.62 Y147.227 E6.18057
G1 X154.179 Y147.767 E6.21049
G1 X153.368 Y148.7 E6.26354
G1 X153.219 Y148.868 E6.27317
G1 X151.999 Y150.215 E6.35116
G1 X151.504 Y150.745 E6.38228
G1 X151.043 Y151.208 E6.41032
G1 X150.147 Y152.056 E6.46326
G1 X149.975 Y152.216 E6.47334
G1 X148.613 Y153.451 E6.55224
G1 X148.087 Y153.914 E6.58231
G1 X147.576 Y154.336 E6.61075
G1 X146.629 Y155.071 E6.6622
G1 X146.434 Y155.219 E6.6727
G1 X144.764 Y156.455 E6.76186
G1 X144.353 Y156.749 E6.78355
G1 X143.805 Y157.116 E6.81185
G1 X142.772 Y157.765 E6.8642
G1 X142.568 Y157.89 E6.87447
G1 X140.849 Y158.917 E6.9604
G1 X140.39 Y159.183 E6.98317
G1 X139.787 Y159.508 E7.01256
G1 X138.521 Y160.138 E7.07325
G1 X136.875 Y160.917 E7.15139
G1 X136.205 Y161.222 E7.18298
G1 X135.585 Y161.481 E7.21182
G1 X134.45 Y161.915 E7.26397
G1 X134.228 Y161.998 E7.27414
G1 X132.454 Y162.633 E7.355
G1 X131.843 Y162.841 E7.38269
G1 X131.208 Y163.036 E7.4112
G1 X129.986 Y163.37 E7.46556
G1 X129.751 Y163.431 E7.47598
G1 X127.834 Y163.909 E7.56077
G1 X127.327 Y164.029 E7.58312
G1 X126.633 Y164.17 E7.61352
G1 X125.448 Y164.371 E7.66509
G1 X125.222 Y164.407 E7.67491
G1 X123.232 Y164.701 E7.76124
G1 X122.721 Y164.769 E7.78336
G1 X122.041 Y164.838 E7.81269
G1 X120.817 Y164.924 E7.86535
G1 X120.583 Y164.938 E7.87541
G1 X118.6 Y165.034 E7.96061
G1 X118.071 Y165.053 E7.98332
G1 X117.362 Y165.056 E8.01375
G1 X116.171 Y165.022 E8.06488
G1 X115.95 Y165.013 E8.07437
G1 X113.922 Y164.913 E8.1615
G1 X113.37 Y164.877 E8.18524
G1 X112.703 Y164.813 E8.214
G1 X111.535 Y164.665 E8.26452
G1 X111.304 Y164.633 E8.27453
G1 X109.292 Y164.334 E8.36182
G1 X108.819 Y164.258 E8.38238
G1 X108.108 Y164.119 E8.41347
G1 X106.864 Y163.834 E8.46823
G1 X106.645 Y163.782 E8.47789
G1 X104.731 Y163.301 E8.56258
G1 X104.236 Y163.169 E8.58457
G1 X103.584 Y162.973 E8.61379
G1 X102.408 Y162.58 E8.667
G1 X102.193 Y162.506 E8.67675
G1 X100.466 Y161.889 E8.75545
G1 X99.824 Y161.649 E8.78487
G1 X99.185 Y161.387 E8.8145
G1 X98.045 Y160.876 E8.86811
G1 X97.841 Y160.782 E8.87775
G1 X96.111 Y159.963 E8.95989
G1 X95.593 Y159.71 E8.98463
G1 X94.959 Y159.374 E9.01542
G1 X93.898 Y158.767 E9.06788
G1 X93.706 Y158.655 E9.07742
G1 X91.999 Y157.631 E9.16284
G1 X91.573 Y157.368 E9.18433
G1 X90.984 Y156.977 E9.21466
G1 X89.96 Y156.25 E9.26856
G1 X89.775 Y156.116 E9.27836
G1 X88.19 Y154.939 E9.36308
G1 X87.765 Y154.614 E9.38604
G1 X87.228 Y154.176 E9.41578
G1 X86.307 Y153.375 E9.46816
G1 X86.138 Y153.224 E9.47788
G1 X84.644 Y151.869 E9.56444
G1 X84.275 Y151.525 E9.58609
G1 X83.786 Y151.039 E9.61567
G1 X82.959 Y150.165 E9.66731
G1 X82.796 Y149.989 E9.6776
G1 X81.422 Y148.47 E9.7655
G1 X81.116 Y148.123 E9.78535
G1 X80.67 Y147.584 E9.81537
G1 X79.907 Y146.599 E9.86884
G1 X79.768 Y146.416 E9.8787
G1 X78.657 Y144.918 E9.95874
G1 X78.248 Y144.349 E9.98881
G1 X77.882 Y143.803 E10.01702
G1 X77.238 Y142.778 E10.06897
G1 X77.118 Y142.583 E10.07879
G1 X76.082 Y140.853 E10.16533
G1 X75.826 Y140.411 E10.18725
G1 X75.499 Y139.803 E10.21687
G1 X74.947 Y138.695 E10.26999
G1 X74.85 Y138.494 E10.27957
G1 X73.994 Y136.683 E10.36553
G1 X73.785 Y136.225 E10.38714
G1 X73.515 Y135.581 E10.4171
G1 X73.089 Y134.465 E10.46837
G1 X73.009 Y134.247 E10.47833
G1 X72.331 Y132.348 E10.56486
G1 X72.156 Y131.834 E10.58816
G1 X71.957 Y131.183 E10.61738
G1 X71.63 Y129.984 E10.67071
G1 X71.572 Y129.764 E10.68047
G1 X71.093 Y127.849 E10.76518
G1 X70.969 Y127.322 E10.78842
G1 X70.832 Y126.646 E10.81802
G1 X70.624 Y125.422 E10.87129
G1 X70.587 Y125.185 E10.88159
G1 X70.307 Y123.282 E10.96413
G1 X70.234 Y122.741 E10.98756
G1 X70.162 Y122.033 E11.0181
G1 X70.075 Y120.782 E11.07191
G1 X70.061 Y120.554 E11.08172
G1 X69.965 Y118.559 E11.16743
G1 X69.947 Y118.021 E11.19053
G1 X69.946 Y117.336 E11.21992
G1 X69.98 Y116.157 E11.27054
G1 X69.988 Y115.938 E11.27994
G1 X70.087 Y113.939 E11.36583
G1 X70.12 Y113.415 E11.38836
G1 X70.185 Y112.724 E11.41815
G1 X70.34 Y111.5 E11.47109
G1 X70.372 Y111.266 E11.48123
G1 X70.67 Y109.269 E11.56788
G1 X70.748 Y108.788 E11.58879
G1 X70.885 Y108.087 E11.61944
G1 X71.167 Y106.859 E11.67351
G1 X71.219 Y106.641 E11.68313
G1 X71.691 Y104.766 E11.7661
G1 X71.837 Y104.217 E11.79048
G1 X72.036 Y103.555 E11.82014
G1 X72.424 Y102.395 E11.87263
G1 X72.499 Y102.178 E11.88249
G1 X73.168 Y100.311 E11.96759
G1 X73.338 Y99.854 E11.98852
G1 X73.61 Y99.19 E12.01931
G1 X74.121 Y98.05 E12.07292
G1 X74.216 Y97.843 E12.0827
G1 X74.978 Y96.233 E12.15913
G1 X75.289 Y95.596 E12.18955
G1 X75.627 Y94.958 E12.22054
G1 X76.235 Y93.896 E12.27305
G1 X76.346 Y93.706 E12.2825
G1 X77.361 Y92.014 E12.36717
G1 X77.631 Y91.576 E12.38925
G1 X78.033 Y90.97 E12.42046
G1 X78.751 Y89.961 E12.4736
G1 X78.876 Y89.789 E12.48272
G1 X80.076 Y88.172 E12.56914
G1 X80.396 Y87.754 E12.59173
G1 X80.827 Y87.225 E12.62101
G1 X81.63 Y86.301 E12.67354
G1 X81.784 Y86.128 E12.68348
G1 X83.136 Y84.638 E12.76982
G1 X83.472 Y84.278 E12.79095
G1 X83.953 Y83.795 E12.82021
G0 F6000 X84.228 Y84.085
G1 F1200 X85.124 Y83.237 E12.87315
G1 X85.291 Y83.082 E12.88293
G1 X86.649 Y81.851 E12.96158
G1 X87.187 Y81.378 E12.99232
G1 X87.675 Y80.976 E13.01946
G1 X88.624 Y80.24 E13.07099
G1 X88.807 Y80.101 E13.08085
G1 X90.449 Y78.885 E13.16854
G1 X90.863 Y78.588 E13.1904
G1 X91.395 Y78.23 E13.21792
G1 X92.434 Y77.576 E13.2706
G1 X92.633 Y77.454 E13.28062
G1 X94.358 Y76.422 E13.36688
G1 X94.796 Y76.169 E13.38859
G1 X95.364 Y75.864 E13.41626
G1 X96.464 Y75.315 E13.46901
G1 X96.67 Y75.215 E13.47884
G1 X98.535 Y74.335 E13.56734
G1 X98.986 Y74.131 E13.58858
G1 X99.572 Y73.887 E13.61582
G1 X100.695 Y73.458 E13.66741
G1 X100.9 Y73.382 E13.67679
G1 X102.826 Y72.693 E13.76457
G1 X103.297 Y72.533 E13.78592
G1 X103.915 Y72.344 E13.81365
G1 X105.113 Y72.017 E13.86694
G1 X105.328 Y71.961 E13.87648
G1 X107.245 Y71.482 E13.96127
G1 X107.756 Y71.362 E13.9838
G1 X108.412 Y71.229 E14.01252
G1 X109.648 Y71.02 E14.06631
G1 X111.66 Y70.72 E14.15361
G1 X112.358 Y70.626 E14.18384
G1 X113.024 Y70.558 E14.21256
G1 X114.223 Y70.475 E14.26414
G1 X114.435 Y70.463 E14.27325
G1 X116.441 Y70.365 E14.35944
G1 X116.961 Y70.347 E14.38177
G1 X117.622 Y70.345 E14.41013
G1 X118.846 Y70.379 E14.46268
G1 X119.073 Y70.388 E14.47243
G1 X121.036 Y70.485 E14.55677
G1 X121.585 Y70.52 E14.58038
G1 X122.248 Y70.584 E14.60896
G1 X123.428 Y70.734 E14.66001
G1 X123.648 Y70.764 E14.66954
G1 X125.619 Y71.058 E14.75506
G1 X126.135 Y71.141 E14.77748
G1 X126.829 Y71.276 E14.80782
G1 X128.234 Y71.601 E14.86971
G1 X130.008 Y72.045 E14.94819
G1 X130.651 Y72.215 E14.97673
G1 X131.296 Y72.408 E15.00562
G1 X132.445 Y72.792 E15.05761
G1 X132.656 Y72.865 E15.06719
G1 X134.564 Y73.548 E15.15416
G1 X135.011 Y73.715 E15.17463
G1 X135.636 Y73.972 E15.20363
G1 X136.821 Y74.503 E15.25936
G1 X137.022 Y74.596 E15.26886
G1 X138.749 Y75.414 E15.35087
G1 X139.219 Y75.643 E15.3733
G1 X139.843 Y75.973 E15.4036
G1 X140.884 Y76.569 E15.45507
G1 X141.065 Y76.675 E15.46407
G1 X142.781 Y77.704 E15.54994
G1 X143.216 Y77.972 E15.57186
G1 X143.795 Y78.355 E15.60166
G1 X144.779 Y79.054 E15.65345
G1 X144.957 Y79.184 E15.66291
G1 X146.587 Y80.395 E15.75005
G1 X146.981 Y80.696 E15.77133
G1 X147.5 Y81.119 E15.80006
G1 X148.418 Y81.917 E15.85226
G1 X148.584 Y82.064 E15.86178
G1 X149.987 Y83.336 E15.94304
G1 X150.471 Y83.788 E15.97146
G1 X150.931 Y84.245 E15.99929
G1 X151.774 Y85.137 E16.05196
G1 X153.16 Y86.663 E16.14042
G1 X153.289 Y86.807 E16.14872
G1 X153.623 Y87.189 E16.17049
G1 X154.016 Y87.666 E16.19702
G1 X154.759 Y88.623 E16.24901
G1 X154.902 Y88.811 E16.25915
G1 X156.016 Y90.314 E16.33943
G1 X156.403 Y90.852 E16.36787
G1 X156.76 Y91.382 E16.39529
G1 X157.426 Y92.44 E16.44894
G1 X157.547 Y92.637 E16.45886
G1 X158.552 Y94.316 E16.54284
G1 X158.945 Y94.996 E16.57654
G1 X159.248 Y95.56 E16.60402
G1 X159.417 Y95.898 E16.62023
G1 X159.521 Y96.112 E16.63044
G1 X160.641 Y98.486 E16.74309
G1 X160.867 Y98.984 E16.76656
G1 X161.116 Y99.58 E16.79428
G1 X161.544 Y100.7 E16.84573
G1 X161.622 Y100.913 E16.85546
G1 X162.279 Y102.751 E16.93923
G1 X162.459 Y103.276 E16.96304
G1 X162.658 Y103.921 E16.99201
G1 X162.983 Y105.111 E17.04495
G1 X163.481 Y107.094 E17.13269
G1 X163.639 Y107.76 E17.16206
G1 X163.773 Y108.42 E17.19096
G1 X163.976 Y109.618 E17.24311
G1 X164.01 Y109.83 E17.25232
G1 X164.308 Y111.842 E17.3396
G1 X164.373 Y112.331 E17.36077
G1 X164.439 Y112.988 E17.38911
G1 X164.524 Y114.203 E17.44138
G1 X164.537 Y114.423 E17.45083
G1 X164.634 Y116.414 E17.53638
G1 X164.653 Y116.942 E17.55905
G1 X164.656 Y117.625 E17.58836
G1 X164.622 Y118.817 E17.63953
G1 X164.523 Y120.878 E17.72808
G1 X164.514 Y121.052 E17.73556
G1 X164.478 Y121.604 E17.7593
G1 X164.416 Y122.244 E17.78689
G1 X164.266 Y123.43 E17.83819
G1 X164.235 Y123.658 E17.84806
G1 X163.946 Y125.595 E17.93211
G1 X163.819 Y126.371 E17.96585
G1 X163.712 Y126.927 E17.99015
G1 X163.643 Y127.242 E18.00399
G1 X163.57 Y127.555 E18.01778
G1 X162.952 Y130.017 E18.12671
G1 X162.78 Y130.666 E18.15552
G1 X162.588 Y131.309 E18.18432
G1 X162.195 Y132.483 E18.23745
G1 X162.123 Y132.69 E18.24685
G1 X161.446 Y134.58 E18.33301
G1 X161.287 Y135.007 E18.35256
G1 X161.024 Y135.647 E18.38225
G1 X160.426 Y136.976 E18.44479
G1 X159.633 Y138.65 E18.52428
G1 X159.338 Y139.253 E18.55309
G1 X159.018 Y139.858 E18.58246
G1 X158.425 Y140.894 E18.63369
G1 X157.366 Y142.664 E18.7222
G1 X157.024 Y143.221 E18.75025
G1 X156.644 Y143.794 E18.77976
G1 X155.933 Y144.795 E18.83245
G1 X155.805 Y144.972 E18.84182
G1 X154.625 Y146.561 E18.92675
G1 X154.302 Y146.984 E18.94959
G1 X153.877 Y147.505 E18.97845
G1 X152.923 Y148.6 E19.04077
G1 X151.703 Y149.947 E19.11876
G1 X151.213 Y150.471 E19.14955
G1 X150.768 Y150.918 E19.17661
G1 X149.872 Y151.766 E19.22955
G1 X149.706 Y151.919 E19.23924
G1 X148.216 Y153.269 E19.32553
G1 X147.824 Y153.613 E19.34791
G1 X147.331 Y154.02 E19.37534
G1 X146.384 Y154.755 E19.42678
G1 X146.196 Y154.898 E19.43692
G1 X144.675 Y156.025 E19.51816
G1 X144.12 Y156.423 E19.54747
G1 X143.592 Y156.778 E19.57477
G1 X142.559 Y157.427 E19.62712
G1 X142.363 Y157.547 E19.63698
G1 X140.649 Y158.571 E19.72266
G1 X140.19 Y158.837 E19.74543
G1 X139.608 Y159.151 E19.77381
G1 X138.548 Y159.68 E19.82465
G1 X138.349 Y159.776 E19.83413
G1 X136.552 Y160.625 E19.91942
G1 X136.039 Y160.858 E19.9436
G1 X135.442 Y161.108 E19.97137
G1 X134.307 Y161.542 E20.02352
G1 X134.093 Y161.621 E20.03331
G1 X132.154 Y162.314 E20.12167
G1 X131.715 Y162.463 E20.14157
G1 X131.103 Y162.65 E20.16903
G1 X129.881 Y162.984 E20.22339
G1 X129.654 Y163.043 E20.23346
G1 X127.741 Y163.52 E20.31806
G1 X127.234 Y163.64 E20.34042
G1 X126.566 Y163.776 E20.36968
G1 X125.381 Y163.977 E20.42126
G1 X125.163 Y164.011 E20.43072
G1 X123.179 Y164.304 E20.51679
G1 X122.668 Y164.372 E20.53891
G1 X122.013 Y164.439 E20.56717
G1 X120.789 Y164.525 E20.61982
G1 X120.564 Y164.538 E20.62949
G1 X118.585 Y164.634 E20.71452
