;FLAVOR:Marlin
;TIME:992
;Filament used: 0.867629m
;Layer height: 0.28
;MINX:88.72
;MINY:96.848
;MINZ:0.28
;MAXX:146.28
;MAXY:138.152
;MAXZ:8.96
;Generated with Cura_SteamEngine 4.12.1
M140 S50
M105
M190 S50
M104 S200
M105
M109 S200
M82 ;absolute extrusion mode
; Ender 3 Custom Start G-code
G92 E0 ; Reset Extruder
G28 ; Home all axes
G1 Z2.0 F3000 ; Move Z Axis up little to prevent scratching of Heat Bed
G1 X0.1 Y20 Z0.3 F5000.0 ; Move to start position
G1 X0.1 Y200.0 Z0.3 F1500.0 E15 ; Draw the first line
G1 X0.4 Y200.0 Z0.3 F5000.0 ; Move to side a little
G1 X0.4 Y20 Z0.3 F1500.0 E30 ; Draw the second line
G92 E0 ; Reset Extruder
G1 Z2.0 F3000 ; Move Z Axis up little to prevent scratching of Heat Bed
G1 X5 Y20 Z0.3 F5000.0 ; Move over to prevent blob squish
G92 E0
G92 E0
G1 F2700 E-5
;LAYER_COUNT:32
;LAYER:0
M107
G0 F6000 X92.606 Y99.475 Z0.28
;TYPE:SKIRT
G1 F2700 E0
G1 F1200 X93.346 Y98.899 E0.04024
G1 X94.132 Y98.387 E0.0805
G1 X94.959 Y97.945 E0.12074
G1 X95.821 Y97.575 E0.16099
G1 X96.711 Y97.279 E0.20124
G1 X97.623 Y97.061 E0.24148
G1 X98.55 Y96.92 E0.28172
G1 X99.421 Y96.861 E0.31918
G1 X99.742 Y96.852 E0.33296
G1 X100.05 Y96.848 E0.34618
G1 X134.573 Y96.848 E1.82769
G1 X135.429 Y96.859 E1.86443
G1 X136.365 Y96.913 E1.90466
G1 X137.293 Y97.045 E1.94488
G1 X138.207 Y97.257 E1.98515
G1 X139.099 Y97.546 E2.02539
G1 X139.964 Y97.909 E2.06564
G1 X140.794 Y98.345 E2.10588
G1 X141.585 Y98.85 E2.14615
G1 X142.329 Y99.421 E2.1864
G1 X143.022 Y100.053 E2.22664
G1 X143.659 Y100.741 E2.26688
G1 X144.234 Y101.482 E2.30713
G1 X144.745 Y102.268 E2.34736
G1 X145.187 Y103.096 E2.38764
G1 X145.556 Y103.958 E2.42788
G1 X145.851 Y104.848 E2.46811
G1 X146.069 Y105.76 E2.50835
G1 X146.209 Y106.688 E2.54863
G1 X146.267 Y107.549 E2.58566
G1 X146.276 Y107.869 E2.5994
G1 X146.28 Y108.178 E2.61266
G1 X146.279 Y110.342 E2.70553
G1 X146.269 Y111.047 E2.73578
G1 X146.261 Y111.346 E2.74862
G1 X146.242 Y111.805 E2.76833
G1 X146.136 Y113.676 E2.84875
G1 X146.064 Y116.228 E2.95831
G1 X146.064 Y118.717 E3.06512
G1 X146.138 Y121.324 E3.17704
G1 X146.202 Y122.607 E3.23217
G1 X146.252 Y123.47 E3.26927
G1 X146.265 Y123.773 E3.28228
G1 X146.275 Y124.103 E3.29645
G1 X146.28 Y124.436 E3.31074
G1 X146.279 Y126.552 E3.40155
G1 X146.27 Y127.279 E3.43275
G1 X146.219 Y128.216 E3.47302
G1 X146.087 Y129.144 E3.51324
G1 X145.878 Y130.058 E3.55348
G1 X145.591 Y130.951 E3.59373
G1 X145.229 Y131.817 E3.63401
G1 X144.795 Y132.648 E3.67424
G1 X144.291 Y133.439 E3.71449
G1 X143.722 Y134.184 E3.75472
G1 X143.091 Y134.879 E3.795
G1 X142.404 Y135.517 E3.83524
G1 X141.665 Y136.094 E3.87547
G1 X140.879 Y136.606 E3.91573
G1 X140.053 Y137.049 E3.95595
G1 X139.191 Y137.421 E3.99624
G1 X138.302 Y137.717 E4.03645
G1 X137.39 Y137.937 E4.07671
G1 X136.463 Y138.078 E4.11695
G1 X135.579 Y138.139 E4.15497
G1 X135.258 Y138.148 E4.16875
G1 X134.95 Y138.152 E4.18197
G1 X100.285 Y138.151 E5.66957
G1 X99.587 Y138.142 E5.69952
G1 X98.651 Y138.09 E5.73975
G1 X97.722 Y137.958 E5.78002
G1 X96.808 Y137.748 E5.82027
G1 X95.915 Y137.461 E5.86052
G1 X95.05 Y137.098 E5.90077
G1 X94.219 Y136.664 E5.94101
G1 X93.428 Y136.16 E5.98126
G1 X92.683 Y135.59 E6.02151
G1 X91.989 Y134.959 E6.06176
G1 X91.352 Y134.272 E6.10197
G1 X90.775 Y133.532 E6.14224
G1 X90.263 Y132.746 E6.18249
G1 X89.82 Y131.919 E6.22275
G1 X89.449 Y131.058 E6.26298
G1 X89.153 Y130.168 E6.30323
G1 X88.934 Y129.256 E6.34348
G1 X88.793 Y128.329 E6.38372
G1 X88.733 Y127.44 E6.42196
G1 X88.724 Y127.107 E6.43625
G1 X88.72 Y126.81 E6.449
G1 X88.721 Y108.373 E7.2402
G1 X88.73 Y107.708 E7.26874
G1 X88.783 Y106.772 E7.30897
G1 X88.915 Y105.843 E7.34924
G1 X89.126 Y104.929 E7.38949
G1 X89.414 Y104.037 E7.42972
G1 X89.777 Y103.172 E7.46997
G1 X90.212 Y102.341 E7.51022
G1 X90.716 Y101.551 E7.55044
G1 X91.286 Y100.806 E7.59069
G1 X91.918 Y100.112 E7.63097
G1 X92.606 Y99.475 E7.67121
G0 F6000 X92.994 Y99.671
G1 F1200 X93.73 Y99.118 E7.71072
G1 X94.511 Y98.63 E7.75024
G1 X95.331 Y98.212 E7.78973
G1 X96.185 Y97.867 E7.82926
G1 X97.065 Y97.597 E7.86876
G1 X97.965 Y97.405 E7.90825
G1 X98.879 Y97.291 E7.94778
G1 X99.432 Y97.261 E7.97154
G1 X99.753 Y97.252 E7.98532
G1 X100.05 Y97.248 E7.99807
G1 X134.573 Y97.248 E9.47958
G1 X135.423 Y97.259 E9.51606
G1 X136.342 Y97.312 E9.55556
G1 X137.253 Y97.445 E9.59507
G1 X138.149 Y97.656 E9.63457
G1 X139.023 Y97.944 E9.67406
G1 X139.87 Y98.307 E9.71361
G1 X140.681 Y98.742 E9.7531
G1 X141.451 Y99.246 E9.79259
G1 X142.175 Y99.815 E9.83211
G1 X142.847 Y100.445 E9.87164
G1 X143.462 Y101.13 E9.91114
G1 X144.015 Y101.866 E9.95065
G1 X144.502 Y102.647 E9.99015
G1 X144.919 Y103.468 E10.02966
G1 X145.264 Y104.322 E10.06919
G1 X145.533 Y105.202 E10.10868
G1 X145.725 Y106.103 E10.14821
G1 X145.838 Y107.016 E10.18769
G1 X145.867 Y107.56 E10.21107
G1 X145.876 Y107.88 E10.2248
G1 X145.88 Y108.178 E10.23759
G1 X145.879 Y110.336 E10.3302
G1 X145.869 Y111.041 E10.36046
G1 X145.861 Y111.329 E10.37282
G1 X145.834 Y111.952 E10.39958
G1 X145.736 Y113.676 E10.47368
G1 X145.664 Y116.217 E10.58277
G1 X145.664 Y118.728 E10.69053
G1 X145.737 Y121.309 E10.80133
G1 X145.807 Y122.712 E10.86161
G1 X145.852 Y123.493 E10.89519
G1 X145.865 Y123.785 E10.90773
G1 X145.875 Y124.115 E10.9219
G1 X145.88 Y124.436 E10.93567
G1 X145.879 Y126.547 E11.02626
G1 X145.87 Y127.274 E11.05746
G1 X145.819 Y128.193 E11.09696
G1 X145.688 Y129.105 E11.1365
G1 X145.478 Y130.001 E11.17599
G1 X145.192 Y130.876 E11.2155
G1 X144.831 Y131.723 E11.25501
G1 X144.397 Y132.535 E11.29452
G1 X143.895 Y133.307 E11.33404
G1 X143.327 Y134.032 E11.37356
G1 X142.699 Y134.705 E11.41306
G1 X142.015 Y135.321 E11.45257
G1 X141.28 Y135.875 E11.49206
G1 X140.5 Y136.364 E11.53157
G1 X139.68 Y136.783 E11.57109
G1 X138.827 Y137.129 E11.61059
G1 X137.947 Y137.4 E11.6501
G1 X137.047 Y137.593 E11.6896
G1 X136.133 Y137.708 E11.72914
G1 X135.568 Y137.739 E11.75342
G1 X135.247 Y137.748 E11.7672
G1 X134.95 Y137.752 E11.77994
G1 X100.29 Y137.751 E13.26733
G1 X99.592 Y137.742 E13.29728
G1 X98.673 Y137.69 E13.33679
G1 X97.762 Y137.559 E13.37628
G1 X96.866 Y137.349 E13.41577
G1 X95.991 Y137.062 E13.45529
G1 X95.144 Y136.7 E13.49482
G1 X94.332 Y136.266 E13.53433
G1 X93.561 Y135.764 E13.57381
G1 X92.836 Y135.196 E13.61334
G1 X92.163 Y134.567 E13.65287
G1 X91.548 Y133.883 E13.69234
G1 X90.994 Y133.148 E13.73184
G1 X90.506 Y132.367 E13.77136
G1 X90.087 Y131.547 E13.81088
G1 X89.741 Y130.694 E13.85038
G1 X89.471 Y129.814 E13.88988
G1 X89.278 Y128.913 E13.92942
G1 X89.164 Y128 E13.96891
G1 X89.133 Y127.429 E13.99344
G1 X89.124 Y127.096 E14.00774
G1 X89.12 Y126.81 E14.02001
G1 X89.121 Y108.379 E14.81095
G1 X89.13 Y107.714 E14.83949
G1 X89.182 Y106.794 E14.87904
G1 X89.314 Y105.883 E14.91854
G1 X89.525 Y104.987 E14.95804
G1 X89.812 Y104.112 E14.99756
G1 X90.175 Y103.266 E15.03707
G1 X90.609 Y102.454 E15.07658
G1 X91.112 Y101.683 E15.11608
G1 X91.681 Y100.959 E15.1556
G1 X92.309 Y100.287 E15.19507
G1 X92.994 Y99.671 E15.2346
G0 F6000 X93.382 Y99.872
G1 F1200 X94.114 Y99.342 E15.27338
G1 X94.889 Y98.879 E15.31213
G1 X95.702 Y98.486 E15.35088
G1 X96.547 Y98.166 E15.38965
G1 X97.416 Y97.923 E15.42837
G1 X98.304 Y97.757 E15.46714
G1 X99.443 Y97.661 E15.51619
G1 X99.764 Y97.652 E15.52997
G1 X100.05 Y97.648 E15.54225
G1 X134.573 Y97.648 E17.02375
G1 X135.417 Y97.659 E17.05998
G1 X136.319 Y97.712 E17.09875
G1 X137.212 Y97.844 E17.13749
G1 X138.09 Y98.055 E17.17624
G1 X138.946 Y98.343 E17.215
G1 X139.773 Y98.705 E17.25374
G1 X140.565 Y99.14 E17.29251
G1 X141.316 Y99.642 E17.33128
G1 X142.019 Y100.209 E17.37004
G1 X142.669 Y100.836 E17.40879
G1 X143.261 Y101.518 E17.44755
G1 X143.791 Y102.249 E17.4863
G1 X144.253 Y103.025 E17.52505
G1 X144.646 Y103.838 E17.5638
G1 X144.964 Y104.683 E17.60255
G1 X145.207 Y105.553 E17.64131
G1 X145.372 Y106.441 E17.68007
G1 X145.467 Y107.571 E17.72873
G1 X145.476 Y107.891 E17.74247
G1 X145.48 Y108.178 E17.75479
G1 X145.479 Y110.331 E17.84718
G1 X145.469 Y111.036 E17.87744
G1 X145.461 Y111.313 E17.88933
G1 X145.435 Y111.93 E17.91583
G1 X145.335 Y113.679 E17.99101
G1 X145.264 Y116.205 E18.09945
G1 X145.264 Y118.739 E18.2082
G1 X145.338 Y121.341 E18.3199
G1 X145.403 Y122.653 E18.37627
G1 X145.453 Y123.516 E18.41337
G1 X145.465 Y123.797 E18.42544
G1 X145.475 Y124.127 E18.43961
G1 X145.48 Y124.436 E18.45287
G1 X145.479 Y126.542 E18.54325
G1 X145.47 Y127.269 E18.57445
G1 X145.419 Y128.171 E18.61322
G1 X145.288 Y129.065 E18.65199
G1 X145.079 Y129.943 E18.69072
G1 X144.793 Y130.8 E18.72949
G1 X144.432 Y131.628 E18.76826
G1 X144 Y132.42 E18.80697
G1 X143.499 Y133.172 E18.84575
G1 X142.933 Y133.876 E18.88451
G1 X142.308 Y134.527 E18.92324
G1 X141.627 Y135.121 E18.96202
G1 X140.896 Y135.652 E19.00079
G1 X140.122 Y136.116 E19.03952
G1 X139.309 Y136.51 E19.07829
G1 X138.465 Y136.83 E19.11702
G1 X137.595 Y137.075 E19.15581
G1 X136.708 Y137.241 E19.19453
G1 X135.557 Y137.339 E19.24411
G1 X135.236 Y137.348 E19.25789
G1 X134.95 Y137.352 E19.27016
G1 X100.295 Y137.351 E20.75733
G1 X99.597 Y137.342 E20.78729
G1 X98.696 Y137.291 E20.82601
G1 X97.802 Y137.159 E20.86479
G1 X96.924 Y136.95 E20.90353
G1 X96.067 Y136.663 E20.94231
G1 X95.24 Y136.302 E20.98103
G1 X94.447 Y135.869 E21.01981
G1 X93.696 Y135.368 E21.05855
G1 X92.992 Y134.802 E21.09731
G1 X92.341 Y134.176 E21.13607
G1 X91.748 Y133.495 E21.17482
G1 X91.218 Y132.764 E21.21357
G1 X90.754 Y131.989 E21.25233
G1 X90.36 Y131.176 E21.2911
G1 X90.04 Y130.332 E21.32984
G1 X89.796 Y129.462 E21.36861
G1 X89.63 Y128.574 E21.40738
G1 X89.533 Y127.419 E21.45712
G1 X89.524 Y127.086 E21.47141
G1 X89.52 Y126.81 E21.48326
G1 X89.521 Y108.384 E22.27398
G1 X89.53 Y107.719 E22.30252
G1 X89.582 Y106.817 E22.3413
G1 X89.714 Y105.924 E22.38003
G1 X89.924 Y105.046 E22.41878
G1 X90.211 Y104.189 E22.45756
G1 X90.573 Y103.362 E22.4963
G1 X91.006 Y102.57 E22.53504
G1 X91.508 Y101.819 E22.5738
G1 X92.075 Y101.115 E22.61259
G1 X92.701 Y100.465 E22.65132
G1 X93.382 Y99.872 E22.69007
G1 F2700 E17.69007
;MESH:ISWAM_Spacer_v1.stl
G0 F6000 X100.134 Y107.183
G0 X100.134 Y108.262
G0 X134.498 Y108.63
G0 X134.498 Y110.111
G0 X117.473 Y110.111
G0 X117.655 Y124.706
;TYPE:WALL-INNER
G1 F2700 E22.69007
G1 F1200 X134.68 Y124.706 E23.42067
G1 X134.68 Y126.552 E23.49989
G1 X100.32 Y126.552 E24.9744
G1 X100.32 Y108.448 E25.75131
G1 X134.68 Y108.448 E27.22582
G1 X134.68 Y110.293 E27.30499
G1 X117.655 Y110.293 E28.0356
G1 X117.655 Y124.706 E28.65411
G0 F6000 X118.055 Y124.306
;TYPE:WALL-OUTER
G1 F1200 X135.08 Y124.306 E29.38471
G1 X135.08 Y126.952 E29.49826
G1 X99.92 Y126.952 E31.0071
G1 X99.92 Y108.048 E31.81834
G1 X135.08 Y108.048 E33.32718
G1 X135.08 Y110.693 E33.44069
G1 X118.055 Y110.693 E34.17129
G1 X118.055 Y124.306 E34.75547
G0 F6000 X117.755 Y124.306
G0 X117.515 Y124.846
G0 X117.265 Y125.096
;TYPE:SKIN
G1 F1200 X134.29 Y125.096 E35.48608
G1 X134.29 Y126.162 E35.53182
G1 X100.71 Y126.162 E36.97286
G1 X100.71 Y108.838 E37.71629
G1 X134.29 Y108.838 E39.15733
G1 X134.29 Y109.903 E39.20303
G1 X117.265 Y109.903 E39.93364
G1 X117.265 Y125.096 E40.58562
G1 F2700 E35.58562
G0 F6000 X117.515 Y124.846
G0 X134.498 Y124.888
G0 X134.498 Y126.37
G0 X101.111 Y126.442
G1 F2700 E40.58562
G0 F6000 X101.111 Y126.001
G1 F1200 X100.869 Y125.759 E40.60031
G0 F6000 X100.869 Y125.193
G1 F1200 X101.677 Y126.001 E40.64935
G0 F6000 X102.242 Y126.001
G1 F1200 X100.869 Y124.628 E40.73267
G0 F6000 X100.869 Y124.062
G1 F1200 X102.808 Y126.001 E40.85035
G0 F6000 X103.374 Y126.001
G1 F1200 X100.869 Y123.496 E41.00237
G0 F6000 X100.869 Y122.931
G1 F1200 X103.939 Y126.001 E41.18869
G0 F6000 X104.505 Y126.001
G1 F1200 X100.869 Y122.365 E41.40935
G0 F6000 X100.869 Y121.799
G1 F1200 X105.071 Y126.001 E41.66437
G0 F6000 X105.636 Y126.001
G1 F1200 X100.869 Y121.234 E41.95367
G0 F6000 X100.869 Y120.668
G1 F1200 X106.202 Y126.001 E42.27733
G0 F6000 X106.768 Y126.001
G1 F1200 X100.869 Y120.102 E42.63533
G0 F6000 X100.869 Y119.537
G1 F1200 X107.333 Y126.001 E43.02762
G0 F6000 X107.899 Y126.001
G1 F1200 X100.869 Y118.971 E43.45427
G0 F6000 X100.869 Y118.405
G1 F1200 X108.465 Y126.001 E43.91526
G0 F6000 X109.03 Y126.001
G1 F1200 X100.869 Y117.84 E44.41054
G0 F6000 X100.869 Y117.274
G1 F1200 X109.596 Y126.001 E44.94018
G0 F6000 X110.162 Y126.001
G1 F1200 X100.869 Y116.708 E45.50416
G0 F6000 X100.869 Y116.142
G1 F1200 X110.727 Y126.001 E46.10246
G0 F6000 X111.293 Y126.001
G1 F1200 X100.869 Y115.577 E46.73508
G0 F6000 X100.869 Y115.011
G1 F1200 X111.859 Y126.001 E47.40205
G0 F6000 X112.425 Y126.001
G1 F1200 X100.869 Y114.445 E48.10337
G0 F6000 X100.869 Y113.88
G1 F1200 X112.99 Y126.001 E48.83898
G0 F6000 X113.556 Y126.001
G1 F1200 X100.869 Y113.314 E49.60895
G0 F6000 X100.869 Y112.748
G1 F1200 X114.122 Y126.001 E50.41326
G0 F6000 X114.687 Y126.001
G1 F1200 X100.869 Y112.183 E51.25186
G0 F6000 X100.869 Y111.617
G1 F1200 X115.253 Y126.001 E52.1248
G0 F6000 X115.819 Y126.001
G1 F1200 X100.869 Y111.051 E53.0321
G0 F6000 X100.869 Y110.486
G1 F1200 X116.384 Y126.001 E53.97369
G0 F6000 X116.95 Y126.001
G1 F1200 X100.869 Y109.92 E54.94963
G0 F6000 X100.869 Y109.354
G1 F1200 X117.516 Y126.001 E55.95992
G0 F6000 X118.081 Y126.001
G1 F1200 X117.336 Y125.256 E56.00513
G0 F6000 X117.105 Y125.024
G1 F1200 X101.078 Y108.997 E56.9778
G0 F6000 X101.643 Y108.997
G1 F1200 X117.105 Y124.459 E57.91617
G0 F6000 X117.105 Y123.893
G1 F1200 X102.209 Y108.997 E58.82019
G0 F6000 X102.775 Y108.997
G1 F1200 X117.105 Y123.327 E59.68986
G0 F6000 X117.105 Y122.762
G1 F1200 X103.34 Y108.997 E60.52525
G0 F6000 X103.906 Y108.997
G1 F1200 X117.105 Y122.196 E61.32628
G0 F6000 X117.105 Y121.63
G1 F1200 X104.472 Y108.997 E62.09296
G0 F6000 X105.037 Y108.997
G1 F1200 X117.105 Y121.065 E62.82536
G0 F6000 X117.105 Y120.499
G1 F1200 X105.603 Y108.997 E63.5234
G0 F6000 X106.169 Y108.997
G1 F1200 X117.105 Y119.933 E64.18709
G0 F6000 X117.105 Y119.368
G1 F1200 X106.734 Y108.997 E64.8165
G0 F6000 X107.3 Y108.997
G1 F1200 X117.105 Y118.802 E65.41155
G0 F6000 X117.105 Y118.236
G1 F1200 X107.866 Y108.997 E65.97226
G0 F6000 X108.431 Y108.997
G1 F1200 X117.105 Y117.671 E66.49868
G0 F6000 X117.104 Y117.104
G1 F1200 X108.997 Y108.997 E66.99068
G0 F6000 X109.563 Y108.997
G1 F1200 X117.104 Y116.538 E67.44834
G0 F6000 X117.104 Y115.973
G1 F1200 X110.129 Y108.997 E67.87167
G0 F6000 X110.694 Y108.997
G1 F1200 X117.104 Y115.407 E68.26069
G0 F6000 X117.104 Y114.841
G1 F1200 X111.26 Y108.997 E68.61535
G0 F6000 X111.826 Y108.997
G1 F1200 X117.104 Y114.276 E68.9357
G0 F6000 X117.104 Y113.71
G1 F1200 X112.391 Y108.997 E69.22173
G0 F6000 X112.957 Y108.997
G1 F1200 X117.104 Y113.144 E69.4734
G0 F6000 X117.104 Y112.579
G1 F1200 X113.523 Y108.997 E69.69076
G0 F6000 X114.088 Y108.997
G1 F1200 X117.104 Y112.013 E69.8738
G0 F6000 X117.104 Y111.447
G1 F1200 X114.654 Y108.997 E70.02249
G0 F6000 X115.22 Y108.997
G1 F1200 X117.104 Y110.882 E70.13686
G0 F6000 X117.104 Y110.316
G1 F1200 X115.785 Y108.997 E70.2169
G0 F6000 X116.351 Y108.997
G1 F1200 X117.104 Y109.75 E70.2626
G0 F6000 X117.662 Y109.742
G1 F1200 X116.917 Y108.997 E70.30782
G0 F6000 X117.482 Y108.997
G1 F1200 X118.228 Y109.742 E70.35306
G0 F6000 X118.793 Y109.742
G1 F1200 X118.048 Y108.997 E70.39827
G0 F6000 X118.614 Y108.997
G1 F1200 X119.359 Y109.742 E70.44349
G0 F6000 X119.925 Y109.742
G1 F1200 X119.18 Y108.997 E70.4887
G0 F6000 X119.745 Y108.997
G1 F1200 X120.49 Y109.742 E70.53391
G0 F6000 X121.056 Y109.742
G1 F1200 X120.311 Y108.997 E70.57913
G0 F6000 X120.877 Y108.997
G1 F1200 X121.622 Y109.742 E70.62434
G0 F6000 X122.188 Y109.742
G1 F1200 X121.442 Y108.997 E70.66958
G0 F6000 X122.008 Y108.997
G1 F1200 X122.753 Y109.742 E70.7148
G0 F6000 X123.319 Y109.742
G1 F1200 X122.574 Y108.997 E70.76001
G0 F6000 X123.139 Y108.997
G1 F1200 X123.885 Y109.742 E70.80525
G0 F6000 X124.45 Y109.742
G1 F1200 X123.705 Y108.997 E70.85047
G0 F6000 X124.271 Y108.997
G1 F1200 X125.016 Y109.742 E70.89568
G0 F6000 X125.582 Y109.742
G1 F1200 X124.836 Y108.997 E70.94092
G0 F6000 X125.402 Y108.997
G1 F1200 X126.147 Y109.742 E70.98614
G0 F6000 X126.713 Y109.742
G1 F1200 X125.968 Y108.997 E71.03135
G0 F6000 X126.533 Y108.997
G1 F1200 X127.279 Y109.742 E71.07659
G0 F6000 X127.844 Y109.742
G1 F1200 X127.099 Y108.997 E71.12181
G0 F6000 X127.665 Y108.997
